ferasoliveira/arquitetura_distribuida/resultados/passo4/dados_v4/ursim_v4_circular.csv
timestamp,source,sequence,q1,q2,q3,q4,q5,q6,q_ref1,q_ref2,q_ref3,q_ref4,q_ref5,q_ref6,qd1,qd2,qd3,qd4,qd5,qd6,qdd1,qdd2,qdd3,qdd4,qdd5,qdd6,tcp_x,tcp_y,tcp_z,tcp_rx,tcp_ry,tcp_rz,tcp_ref_x,tcp_ref_y,tcp_ref_z,state,error_code,trigger
1782262473.010692,ursim,0,-91.713339,-98.955524,-126.222581,-46.294982,91.392482,-1.776169,0.000000,0.000000,0.000000,0.000000,0.000000,0.000000,0.000000,0.000000,0.000000,0.000000,0.000000,0.000000,0.000000,0.000000,0.000000,0.000000,0.000000,0.000000,-189.631,-609.684,260.972,-0.070,178.550,2.228,400.000,0.000,230.000,MOVING,0.000000,0
1782262473.035556,ursim,0,-91.708023,-98.949789,-126.215265,-46.292299,91.387186,-1.776066,0.000000,0.000000,0.000000,0.000000,0.000000,0.000000,0.213782,0.230663,0.294222,0.107913,-0.213034,0.004140,0.000000,0.000000,0.000000,0.000000,0.000000,0.000000,-189.588,-609.766,261.105,-0.079,178.556,2.204,400.000,0.000,230.000,MOVING,0.000000,0
1782262473.052681,ursim,0,-91.692683,-98.933237,-126.194153,-46.284555,91.371899,-1.775769,0.000000,0.000000,0.000000,0.000000,0.000000,0.000000,0.895786,0.966522,1.232846,0.452174,-0.892652,0.017348,34.183688,36.883018,47.046083,17.255213,-34.064097,0.662019,-189.461,-610.002,261.489,-0.103,178.573,2.135,400.000,0.000,230.000,MOVING,0.000000,0
1782262473.069330,ursim,0,-91.662842,-98.901040,-126.153083,-46.269492,91.342162,-1.775191,0.000000,0.000000,0.000000,0.000000,0.000000,0.000000,1.792345,1.933878,2.466755,0.904738,-1.786074,0.034711,52.312725,56.443623,71.996584,26.406373,-52.129710,1.013116,-189.214,-610.460,262.237,-0.151,178.608,1.999,400.000,0.000,230.000,MOVING,0.000000,0
1782262473.094498,ursim,0,-91.590104,-98.822558,-126.052976,-46.232776,91.269679,-1.773782,0.000000,0.000000,0.000000,0.000000,0.000000,0.000000,2.890101,3.118319,3.977567,1.458863,-2.879990,0.055971,67.721804,73.069487,93.203683,34.184555,-67.484882,1.311536,-188.611,-611.572,264.065,-0.267,178.690,1.669,400.000,0.000,230.000,MOVING,0.000000,0
1782262473.111279,ursim,0,-91.522961,-98.750113,-125.960570,-46.198883,91.202771,-1.772482,0.000000,0.000000,0.000000,0.000000,0.000000,0.000000,4.001318,4.317284,5.506905,2.019782,-3.987319,0.077492,-19.871301,-21.440447,-27.348332,-10.030618,19.801781,-0.384838,-188.051,-612.593,265.756,-0.374,178.766,1.364,400.000,0.000,230.000,MOVING,0.000000,0
1782262473.136101,ursim,0,-91.394494,-98.611501,-125.783763,-46.134036,91.074753,-1.769994,0.000000,0.000000,0.000000,0.000000,0.000000,0.000000,5.175351,5.584025,7.122696,2.612410,-5.157246,0.100229,99.524387,107.383376,136.972715,50.237837,-99.176204,1.927442,-186.975,-614.532,269.002,-0.579,178.908,0.780,400.000,0.000,230.000,MOVING,0.000000,0
1782262473.153201,ursim,0,-91.293956,-98.503025,-125.645396,-46.083286,90.974567,-1.768047,0.000000,0.000000,0.000000,0.000000,0.000000,0.000000,5.879689,6.343982,8.092057,2.967945,-5.859120,0.113869,-95.525632,-103.068857,-131.469337,-48.219348,95.191439,-1.850000,-186.126,-616.035,271.553,-0.738,179.018,0.321,400.000,0.000,230.000,MOVING,0.000000,0
1782262473.177801,ursim,0,-91.134801,-98.331301,-125.426355,-46.002948,90.815968,-1.764965,0.000000,0.000000,0.000000,0.000000,0.000000,0.000000,6.469602,6.980477,8.903938,3.265720,-6.446968,0.125294,96.859389,104.507935,133.304950,48.892601,-96.520529,1.875830,-184.774,-618.390,275.608,-0.988,179.187,-0.407,400.000,0.000,230.000,MOVING,0.000000,0
1782262473.195009,ursim,0,-91.028225,-98.216310,-125.279677,-45.949151,90.709766,-1.762901,0.000000,0.000000,0.000000,0.000000,0.000000,0.000000,6.193429,6.682496,8.523848,3.126314,-6.171761,0.119945,-177.568250,-191.590008,-244.382368,-89.632752,176.947033,-3.438880,-183.861,-619.950,278.336,-1.155,179.298,-0.895,400.000,0.000,230.000,MOVING,0.000000,0
1782262473.220330,ursim,0,-90.868362,-98.043823,-125.059662,-45.868455,90.550461,-1.759805,0.000000,0.000000,0.000000,0.000000,0.000000,0.000000,6.313533,6.812084,8.689144,3.186940,-6.291445,0.122271,83.114020,89.677156,114.387572,41.954225,-82.823248,1.609630,-182.482,-622.264,282.446,-1.404,179.460,-1.629,400.000,0.000,230.000,MOVING,0.000000,0
1782262473.237067,ursim,0,-90.761786,-97.928831,-124.912984,-45.814658,90.444259,-1.757741,0.000000,0.000000,0.000000,0.000000,0.000000,0.000000,6.367674,6.870501,8.763657,3.214269,-6.345397,0.123320,-190.227646,-205.249059,-261.805151,-96.022951,189.562141,-3.684049,-181.556,-623.788,285.198,-1.569,179.566,-2.120,400.000,0.000,230.000,MOVING,0.000000,0
1782262473.253931,ursim,0,-90.655210,-97.813840,-124.766307,-45.760861,90.338056,-1.755677,0.000000,0.000000,0.000000,0.000000,0.000000,0.000000,6.319602,6.818632,8.697497,3.190003,-6.297493,0.122389,0.000000,-0.000000,-0.000000,-0.000000,0.000000,-0.000000,-180.625,-625.299,287.959,-1.733,179.670,-2.612,400.000,0.000,230.000,MOVING,0.000000,0
1782262473.277564,ursim,0,-90.495347,-97.641353,-124.546291,-45.680165,90.178751,-1.752581,0.000000,0.000000,0.000000,0.000000,0.000000,0.000000,6.764486,7.298646,9.309778,3.414571,-6.740820,0.131005,95.411118,102.945300,131.311734,48.161544,-95.077325,1.847782,-179.218,-627.539,292.119,-1.978,179.821,-3.351,400.000,0.000,230.000,MOVING,0.000000,0
1782262473.295160,ursim,0,-90.388771,-97.526361,-124.399614,-45.626368,90.072549,-1.750517,0.000000,0.000000,0.000000,0.000000,0.000000,0.000000,6.056892,6.535177,8.335936,3.057393,-6.035702,0.117301,-172.112177,-185.703092,-236.873321,-86.878640,171.510047,-3.333215,-178.275,-629.014,294.904,-2.141,179.919,-3.845,400.000,0.000,230.000,MOVING,0.000000,0
1782262473.320906,ursim,0,-90.228908,-97.353874,-124.179598,-45.545672,89.913244,-1.747421,0.000000,0.000000,0.000000,0.000000,0.000000,0.000000,6.209230,6.699544,8.545595,3.134290,-6.187507,0.120251,80.390533,86.738608,110.639310,40.579466,-80.109289,1.556885,-176.850,-631.200,299.098,2.379,-179.789,4.581,400.000,0.000,230.000,MOVING,0.000000,0
1782262473.337281,ursim,0,-90.122332,-97.238883,-124.032921,-45.491875,89.807042,-1.745357,0.000000,0.000000,0.000000,0.000000,0.000000,0.000000,6.508222,7.022147,8.957090,3.285215,-6.485453,0.126042,-198.717768,-214.409606,-273.489875,-100.308588,198.022560,-3.848473,-175.894,-632.639,301.906,2.536,-179.665,5.070,400.000,0.000,230.000,MOVING,0.000000,0
1782262473.362615,ursim,0,-89.962468,-97.066395,-123.812905,-45.411179,89.647737,-1.742261,0.000000,0.000000,0.000000,0.000000,0.000000,0.000000,6.310265,6.808558,8.684646,3.185290,-6.288188,0.122208,83.028001,89.584345,114.269187,41.910805,-82.737531,1.607964,-174.451,-634.771,306.136,2.770,-179.478,5.804,400.000,0.000,230.000,MOVING,0.000000,0
1782262473.379390,ursim,0,-89.855893,-96.951404,-123.666228,-45.357382,89.541535,-1.740197,0.000000,0.000000,0.000000,0.000000,0.000000,0.000000,6.353194,6.854877,8.743729,3.206960,-6.330968,0.123039,-189.363467,-204.316639,-260.615805,-95.586732,188.700985,-3.667313,-173.483,-636.174,308.966,2.924,-179.352,6.292,400.000,0.000,230.000,MOVING,0.000000,0
1782262473.404491,ursim,0,-89.696029,-96.778917,-123.446212,-45.276686,89.382230,-1.737101,0.000000,0.000000,0.000000,0.000000,0.000000,0.000000,6.368763,6.871675,8.765156,3.214819,-6.346482,0.123341,84.574533,91.252999,116.397636,42.691461,-84.278651,1.637915,-172.023,-638.251,313.229,3.154,-179.161,7.025,400.000,0.000,230.000,MOVING,0.000000,0
1782262473.421244,ursim,0,-89.589454,-96.663925,-123.299535,-45.222889,89.276028,-1.735037,0.000000,0.000000,0.000000,0.000000,0.000000,0.000000,6.361784,6.864145,8.755550,3.211296,-6.339527,0.123206,-189.875862,-204.869495,-261.320999,-95.845378,189.211587,-3.677236,-171.044,-639.617,316.082,3.305,-179.033,7.513,400.000,0.000,230.000,MOVING,0.000000,0
1782262473.437971,ursim,0,-89.482878,-96.548934,-123.152858,-45.169092,89.169825,-1.732973,0.000000,0.000000,0.000000,0.000000,0.000000,0.000000,6.371305,6.874418,8.768654,3.216102,-6.349015,0.123390,0.000000,0.000000,0.000000,-0.000000,0.000000,0.000000,-170.061,-640.968,318.944,3.455,-178.904,8.000,400.000,0.000,230.000,MOVING,0.000000,0
1782262473.463236,ursim,0,-89.323014,-96.376447,-122.932842,-45.088396,89.010521,-1.729877,0.000000,0.000000,0.000000,0.000000,0.000000,0.000000,6.327593,6.827255,8.708495,3.194037,-6.305457,0.122544,83.484640,90.077043,114.897646,42.141307,-83.192572,1.616808,-168.578,-642.967,323.253,3.679,-178.709,8.731,400.000,0.000,230.000,MOVING,0.000000,0
1782262473.479675,ursim,0,-89.216439,-96.261455,-122.786165,-45.034599,88.904318,-1.727813,0.000000,0.000000,0.000000,0.000000,0.000000,0.000000,6.483208,6.995158,8.922664,3.272588,-6.460527,0.125557,-197.193191,-212.764641,-271.391641,-99.539013,196.503317,-3.818947,-167.584,-644.281,326.137,3.826,-178.578,9.218,400.000,0.000,230.000,MOVING,0.000000,0
1782262473.504946,ursim,0,-89.056575,-96.088968,-122.566149,-44.953903,88.745014,-1.724717,0.000000,0.000000,0.000000,0.000000,0.000000,0.000000,6.325803,6.825322,8.706031,3.193133,-6.303672,0.122509,83.437390,90.026061,114.832617,42.117456,-83.145487,1.615892,-166.085,-646.223,330.478,4.045,-178.380,9.948,400.000,0.000,230.000,MOVING,0.000000,0
1782262473.521603,ursim,0,-88.950000,-95.973977,-122.419472,-44.900106,88.638811,-1.722653,0.000000,0.000000,0.000000,0.000000,0.000000,0.000000,6.398299,6.903543,8.805805,3.229728,-6.375914,0.123913,-192.061787,-207.228033,-264.329428,-96.948787,191.389864,-3.719570,-165.081,-647.499,333.383,4.190,-178.248,10.434,400.000,0.000,230.000,MOVING,0.000000,0
1782262473.546860,ursim,0,-88.790136,-95.801489,-122.199456,-44.819410,88.479506,-1.719557,0.000000,0.000000,0.000000,0.000000,0.000000,0.000000,6.329445,6.829253,8.711044,3.194972,-6.307302,0.122579,83.533508,90.129769,114.964901,42.165974,-83.241268,1.617754,-163.568,-649.385,337.757,4.404,-178.047,11.163,400.000,0.000,230.000,MOVING,0.000000,0
1782262473.569536,ursim,0,-88.683560,-95.686498,-122.052779,-44.765613,88.373304,-1.717493,0.000000,0.000000,0.000000,0.000000,0.000000,0.000000,4.699885,5.071013,6.468324,2.372404,-4.683442,0.091020,-103.630206,-111.813413,-142.623443,-52.310368,103.267659,-2.006957,-162.554,-650.623,340.682,4.546,-177.912,11.648,400.000,0.000,230.000,MOVING,0.000000,0
1782262473.589612,ursim,0,-88.523697,-95.514011,-121.832763,-44.684917,88.213999,-1.714397,0.000000,0.000000,0.000000,0.000000,0.000000,0.000000,7.962996,8.591797,10.959255,4.019554,-7.935138,0.154216,132.215513,142.655971,181.964625,66.739635,-131.752961,2.560555,-161.026,-652.451,345.087,4.756,-177.708,12.376,400.000,0.000,230.000,MOVING,0.000000,0
1782262473.606801,ursim,0,-88.417121,-95.399019,-121.686086,-44.631120,88.107797,-1.712333,0.000000,0.000000,0.000000,0.000000,0.000000,0.000000,6.200387,6.690004,8.533425,3.129826,-6.178696,0.120080,-180.363899,-194.606416,-248.229943,-91.043937,179.732901,-3.493022,-160.004,-653.650,348.033,4.895,-177.571,12.860,400.000,0.000,230.000,MOVING,0.000000,0
1782262473.631433,ursim,0,-88.257258,-95.226532,-121.466070,-44.550424,87.948492,-1.709237,0.000000,0.000000,0.000000,0.000000,0.000000,0.000000,6.490017,7.002504,8.932034,3.276025,-6.467312,0.125689,87.825595,94.760782,120.871984,44.332530,-87.518339,1.700877,-158.463,-655.420,352.468,5.101,-177.364,13.587,400.000,0.000,230.000,MOVING,0.000000,0
1782262473.648015,ursim,0,-88.150682,-95.111541,-121.319393,-44.496627,87.842290,-1.707173,0.000000,0.000000,0.000000,0.000000,0.000000,0.000000,6.427370,6.934910,8.845815,3.244402,-6.404884,0.124476,-193.811065,-209.115444,-266.736913,-97.831786,193.133023,-3.753447,-157.432,-656.580,355.434,5.237,-177.225,14.071,400.000,0.000,230.000,MOVING,0.000000,0
1782262473.674273,ursim,0,-87.990819,-94.939053,-121.099377,-44.415931,87.682985,-1.704077,0.000000,0.000000,0.000000,0.000000,0.000000,0.000000,6.088074,6.568821,8.378851,3.073133,-6.066775,0.117905,77.283941,83.386702,106.363792,39.011323,-77.013565,1.496722,-155.878,-658.292,359.899,5.439,-177.016,14.796,400.000,0.000,230.000,MOVING,0.000000,0
1782262473.692981,ursim,0,-87.884243,-94.824062,-120.952700,-44.362134,87.576783,-1.702013,0.000000,0.000000,0.000000,0.000000,0.000000,0.000000,5.696654,6.146493,7.840150,2.875552,-5.676724,0.110324,-152.248009,-164.270342,-209.534806,-76.851622,151.715374,-2.948515,-154.839,-659.413,362.885,5.572,-176.875,15.280,400.000,0.000,230.000,MOVING,0.000000,0
1782262473.717164,ursim,0,-87.724379,-94.651575,-120.732684,-44.281438,87.417478,-1.698917,0.000000,0.000000,0.000000,0.000000,0.000000,0.000000,6.610694,7.132711,9.098119,3.336941,-6.587567,0.128026,91.122069,98.317564,125.408832,45.996521,-90.803281,1.764718,-153.274,-661.065,367.379,5.769,-176.663,16.004,400.000,0.000,230.000,MOVING,0.000000,0
1782262473.741490,ursim,0,-87.564516,-94.479088,-120.512669,-44.200743,87.258174,-1.695821,0.000000,0.000000,0.000000,0.000000,0.000000,0.000000,6.571626,7.090557,9.044350,3.317220,-6.548635,0.127270,-0.000000,0.000000,-0.000000,0.000000,0.000000,0.000000,-151.702,-662.681,371.890,5.964,-176.449,16.727,400.000,0.000,230.000,MOVING,0.000000,0
1782262473.759008,ursim,0,-87.457940,-94.364096,-120.365991,-44.146946,87.151971,-1.693757,0.000000,0.000000,0.000000,0.000000,0.000000,0.000000,6.083931,6.564351,8.373149,3.071041,-6.062646,0.117825,-173.652281,-187.364811,-238.992924,-87.656052,173.044763,-3.363042,-150.651,-663.739,374.907,6.093,-176.305,17.209,400.000,0.000,230.000,MOVING,0.000000,0
1782262473.794594,ursim,0,-87.244789,-94.134113,-120.072637,-44.039351,86.939566,-1.689629,0.000000,0.000000,0.000000,0.000000,0.000000,0.000000,5.989773,6.462758,8.243561,3.023512,-5.968817,0.116001,84.159398,90.805083,115.826297,42.481910,-83.864969,1.629875,-148.540,-665.805,380.962,6.346,-176.016,18.173,400.000,0.000,230.000,MOVING,0.000000,0
1782262473.819419,ursim,0,-87.084925,-93.961626,-119.852621,-43.958655,86.780261,-1.686533,0.000000,0.000000,0.000000,0.000000,0.000000,0.000000,6.439469,6.947964,8.862466,3.250510,-6.416940,0.124710,-86.462838,-93.290416,-118.996460,-43.644639,86.160351,-1.674485,-146.950,-667.313,385.523,6.533,-175.797,18.894,400.000,0.000,230.000,MOVING,0.000000,0
1782262473.842433,ursim,0,-86.925062,-93.789139,-119.632605,-43.877960,86.620957,-1.683437,0.000000,0.000000,0.000000,0.000000,0.000000,0.000000,6.946482,7.495014,9.560254,3.506439,-6.922180,0.134529,-0.000000,0.000000,0.000000,0.000000,0.000000,-0.000000,-145.354,-668.785,390.101,6.718,-175.576,19.615,400.000,0.000,230.000,MOVING,0.000000,0
1782262473.861274,ursim,0,-86.818486,-93.674147,-119.485928,-43.824163,86.514754,-1.681373,0.000000,0.000000,0.000000,0.000000,0.000000,0.000000,5.656717,6.103402,7.785186,2.855393,-5.636927,0.109551,-150.120787,-161.975143,-206.607168,-75.777845,149.595594,-2.907318,-144.287,-669.745,393.161,6.839,-175.428,20.095,400.000,0.000,230.000,MOVING,0.000000,0
1782262473.884324,ursim,0,-86.658623,-93.501660,-119.265912,-43.743467,86.355450,-1.678277,0.000000,0.000000,0.000000,0.000000,0.000000,0.000000,6.935273,7.482920,9.544829,3.500781,-6.911011,0.134312,100.289764,108.209190,138.026082,50.624183,-99.938903,1.942264,-142.683,-671.156,397.765,7.019,-175.205,20.815,400.000,0.000,230.000,MOVING,0.000000,0
1782262473.901791,ursim,0,-86.552047,-93.386669,-119.119235,-43.689670,86.249247,-1.676213,0.000000,0.000000,0.000000,0.000000,0.000000,0.000000,6.101536,6.583347,8.397379,3.079928,-6.080190,0.118166,-174.658738,-188.450744,-240.378085,-88.164091,174.047700,-3.382533,-141.611,-672.075,400.843,7.138,-175.055,21.294,400.000,0.000,230.000,MOVING,0.000000,0
1782262473.926948,ursim,0,-86.392184,-93.214182,-118.899219,-43.608974,86.089943,-1.673117,0.000000,0.000000,0.000000,0.000000,0.000000,0.000000,6.354639,6.856436,8.745717,3.207689,-6.332408,0.123067,84.199831,90.848709,115.881944,42.502320,-83.905261,1.630658,-139.999,-673.424,405.472,7.314,-174.829,22.013,400.000,0.000,230.000,MOVING,0.000000,0
1782262473.943665,ursim,0,-86.285608,-93.099190,-118.752542,-43.555177,85.983740,-1.671053,0.000000,0.000000,0.000000,0.000000,0.000000,0.000000,6.375485,6.878928,8.774407,3.218212,-6.353180,0.123471,-190.694589,-205.752874,-262.447792,-96.258654,190.027450,-3.693092,-138.922,-674.302,408.567,7.430,-174.678,22.492,400.000,0.000,230.000,MOVING,0.000000,0
1782262473.960544,ursim,0,-86.179032,-92.984199,-118.605865,-43.501379,85.877538,-1.668989,0.000000,0.000000,0.000000,0.000000,0.000000,0.000000,6.313978,6.812565,8.689757,3.187165,-6.291889,0.122280,0.000000,0.000000,0.000000,0.000000,0.000000,-0.000000,-137.843,-675.164,411.669,7.544,-174.526,22.970,400.000,0.000,230.000,MOVING,0.000000,0
1782262473.985707,ursim,0,-86.019169,-92.811711,-118.385849,-43.420684,85.718233,-1.665893,0.000000,0.000000,0.000000,0.000000,0.000000,0.000000,6.353254,6.854942,8.743812,3.206990,-6.331028,0.123040,84.163136,90.809116,115.831442,42.483797,-83.868694,1.629948,-136.221,-676.426,416.333,7.714,-174.296,23.687,400.000,0.000,230.000,MOVING,0.000000,0
1782262474.002670,ursim,0,-85.912593,-92.696720,-118.239172,-43.366887,85.612031,-1.663829,0.000000,0.000000,0.000000,0.000000,0.000000,0.000000,6.282564,6.778670,8.646523,3.171308,-6.260585,0.121671,-185.176488,-199.799033,-254.853378,-93.473232,184.528653,-3.586225,-135.138,-677.246,419.451,7.826,-174.142,24.165,400.000,0.000,230.000,MOVING,0.000000,0
1782262474.027991,ursim,0,-85.752730,-92.524233,-118.019156,-43.286191,85.452726,-1.660733,0.000000,0.000000,0.000000,0.000000,0.000000,0.000000,6.313651,6.812212,8.689307,3.187000,-6.291563,0.122274,83.117151,89.680534,114.391880,41.955805,-82.826368,1.609691,-133.511,-678.445,424.140,7.991,-173.910,24.881,400.000,0.000,230.000,MOVING,0.000000,0
1782262474.044756,ursim,0,-85.646154,-92.409241,-117.872479,-43.232394,85.346524,-1.658669,0.000000,0.000000,0.000000,0.000000,0.000000,0.000000,6.356718,6.858679,8.748578,3.208739,-6.334479,0.123108,-189.573568,-204.543330,-260.904960,-95.692786,188.910350,-3.671382,-132.424,-679.223,427.274,8.100,-173.755,25.358,400.000,0.000,230.000,MOVING,0.000000,0
1782262474.069931,ursim,0,-85.486290,-92.236754,-117.652463,-43.151698,85.187219,-1.655573,0.000000,0.000000,0.000000,0.000000,0.000000,0.000000,6.350186,6.851631,8.739588,3.205441,-6.327970,0.122981,84.081854,90.721416,115.719575,42.442768,-83.787696,1.628374,-130.792,-680.359,431.986,8.261,-173.521,26.072,400.000,0.000,230.000,MOVING,0.000000,0
1782262474.086619,ursim,0,-85.379715,-92.121763,-117.505786,-43.097901,85.081017,-1.653509,0.000000,0.000000,0.000000,0.000000,0.000000,0.000000,6.386415,6.890721,8.789450,3.223729,-6.364072,0.123683,-191.349016,-206.458977,-263.348461,-96.588995,190.679587,-3.705766,-129.702,-681.095,435.135,8.367,-173.363,26.548,400.000,0.000,230.000,MOVING,0.000000,0
1782262474.103345,ursim,0,-85.273139,-92.006771,-117.359109,-43.044103,84.974814,-1.651445,0.000000,0.000000,0.000000,0.000000,0.000000,0.000000,6.371668,6.874810,8.769154,3.216285,-6.349377,0.123397,-0.000000,0.000000,0.000000,0.000000,0.000000,-0.000000,-128.611,-681.814,438.290,8.472,-173.206,27.024,400.000,0.000,230.000,MOVING,0.000000,0
1782262474.128352,ursim,0,-85.113276,-91.834284,-117.139093,-42.963408,84.815509,-1.648349,0.000000,0.000000,0.000000,0.000000,0.000000,0.000000,6.392747,6.897554,8.798165,3.226926,-6.370383,0.123805,85.212740,91.941603,117.275983,43.013615,-84.914626,1.650275,-126.973,-682.861,443.034,8.627,-172.968,27.737,400.000,0.000,230.000,MOVING,0.000000,0
1782262474.145351,ursim,0,-85.006700,-91.719293,-116.992416,-42.909611,84.709307,-1.646285,0.000000,0.000000,0.000000,0.000000,0.000000,0.000000,6.269611,6.764694,8.628696,3.164769,-6.247677,0.121421,-184.413693,-198.976003,-253.803564,-93.088189,183.768527,-3.571453,-125.880,-683.538,446.204,8.729,-172.809,28.212,400.000,0.000,230.000,MOVING,0.000000,0
1782262474.170492,ursim,0,-84.846837,-91.546805,-116.772400,-42.828915,84.550002,-1.643189,0.000000,0.000000,0.000000,0.000000,0.000000,0.000000,6.358616,6.860727,8.751191,3.209697,-6.336371,0.123144,84.305264,90.962467,116.027048,42.555540,-84.010324,1.632700,-124.239,-684.521,450.970,8.879,-172.568,28.924,400.000,0.000,230.000,MOVING,0.000000,0
1782262474.187379,ursim,0,-84.740261,-91.431814,-116.625723,-42.775118,84.443800,-1.641125,0.000000,0.000000,0.000000,0.000000,0.000000,0.000000,6.311215,6.809583,8.685954,3.185770,-6.289135,0.122226,-186.869276,-201.625492,-257.183116,-94.327716,186.215519,-3.619009,-123.144,-685.155,454.154,8.978,-172.408,29.398,400.000,0.000,230.000,MOVING,0.000000,0
1782262474.211465,ursim,0,-84.580397,-91.259327,-116.405707,-42.694422,84.284495,-1.638029,0.000000,0.000000,0.000000,0.000000,0.000000,0.000000,6.637327,7.161447,9.134774,3.350385,-6.614107,0.128542,91.857778,99.111369,126.421368,46.367892,-91.536416,1.778966,-121.501,-686.074,458.941,9.125,-172.165,30.109,400.000,0.000,230.000,MOVING,0.000000,0
1782262474.228565,ursim,0,-84.473822,-91.144335,-116.259030,-42.640625,84.178293,-1.635965,0.000000,0.000000,0.000000,0.000000,0.000000,0.000000,6.232373,6.724515,8.577446,3.145972,-6.210569,0.120699,-182.229572,-196.619413,-250.797618,-91.985690,181.592047,-3.529154,-120.405,-686.665,462.139,9.221,-172.003,30.583,400.000,0.000,230.000,MOVING,0.000000,0
1782262474.245810,ursim,0,-84.367246,-91.029344,-116.112353,-42.586828,84.072090,-1.633901,0.000000,0.000000,0.000000,0.000000,0.000000,0.000000,6.180071,6.668083,8.505464,3.119571,-6.158450,0.119687,0.000000,-0.000000,-0.000000,0.000000,-0.000000,0.000000,-119.309,-687.239,465.342,9.316,-171.840,31.056,400.000,0.000,230.000,MOVING,0.000000,0
1782262474.271281,ursim,0,-84.207383,-90.856857,-115.892337,-42.506132,83.912786,-1.630805,0.000000,0.000000,0.000000,0.000000,0.000000,0.000000,6.276301,6.771912,8.637903,3.168146,-6.254344,0.121550,82.136655,88.622613,113.042450,41.460872,-81.849302,1.590702,-117.665,-688.067,470.157,9.456,-171.594,31.765,400.000,0.000,230.000,MOVING,0.000000,0
1782262474.287963,ursim,0,-84.100807,-90.741865,-115.745660,-42.452335,83.806583,-1.628741,0.000000,0.000000,0.000000,0.000000,0.000000,0.000000,6.388788,6.893282,8.792716,3.224927,-6.366437,0.123729,-191.491252,-206.612446,-263.544217,-96.660793,190.821326,-3.708521,-116.568,-688.598,473.373,9.548,-171.429,32.237,400.000,0.000,230.000,MOVING,0.000000,0
1782262474.313048,ursim,0,-83.940943,-90.569378,-115.525644,-42.371639,83.647279,-1.625645,0.000000,0.000000,0.000000,0.000000,0.000000,0.000000,6.372697,6.875920,8.770571,3.216805,-6.350403,0.123417,84.679060,91.365781,116.541494,42.744225,-84.382813,1.639939,-114.924,-689.361,478.208,9.684,-171.181,32.945,400.000,0.000,230.000,MOVING,0.000000,0
1782262474.329517,ursim,0,-83.834368,-90.454386,-115.378967,-42.317842,83.541076,-1.623581,0.000000,0.000000,0.000000,0.000000,0.000000,0.000000,6.471289,6.982297,8.906259,3.266572,-6.448649,0.125326,-196.468757,-211.983001,-270.394622,-99.173334,195.781417,-3.804918,-113.827,-689.848,481.437,9.773,-171.015,33.417,400.000,0.000,230.000,MOVING,0.000000,0
1782262474.354980,ursim,0,-83.674504,-90.281899,-115.158951,-42.237146,83.381772,-1.620485,0.000000,0.000000,0.000000,0.000000,0.000000,0.000000,6.278476,6.774258,8.640896,3.169244,-6.256511,0.121592,82.193578,88.684031,113.120792,41.489605,-81.906026,1.591804,-112.184,-690.546,486.289,9.904,-170.765,34.124,400.000,0.000,230.000,MOVING,0.000000,0
1782262474.371654,ursim,0,-83.567929,-90.166908,-115.012274,-42.183349,83.275569,-1.618421,0.000000,0.000000,0.000000,0.000000,0.000000,0.000000,6.391711,6.896436,8.796739,3.226403,-6.369350,0.123785,-191.666530,-206.801565,-263.785448,-96.749270,190.995991,-3.711915,-111.088,-690.989,489.530,9.991,-170.598,34.594,400.000,0.000,230.000,MOVING,0.000000,0
1782262474.388195,ursim,0,-83.461353,-90.051916,-114.865597,-42.129552,83.169366,-1.616357,0.000000,0.000000,0.000000,0.000000,0.000000,0.000000,6.443026,6.951803,8.867363,3.252305,-6.420486,0.124779,-0.000000,0.000000,-0.000000,0.000000,-0.000000,-0.000000,-109.994,-691.415,492.776,10.076,-170.430,35.065,400.000,0.000,230.000,MOVING,0.000000,0
1782262474.413100,ursim,0,-83.301489,-89.879429,-114.645581,-42.048856,83.010062,-1.613261,0.000000,0.000000,0.000000,0.000000,0.000000,0.000000,6.418940,6.925815,8.834214,3.240147,-6.396484,0.124313,85.912455,92.696571,118.238982,43.366817,-85.611893,1.663826,-108.352,-692.021,497.654,10.201,-170.177,35.770,400.000,0.000,230.000,MOVING,0.000000,0
1782262474.429898,ursim,0,-83.194914,-89.764438,-114.498904,-41.995059,82.903859,-1.611197,0.000000,0.000000,0.000000,0.000000,0.000000,0.000000,6.344537,6.845537,8.731815,3.202590,-6.322341,0.122872,-188.847784,-203.760234,-259.906083,-95.326425,188.187106,-3.657326,-107.259,-692.403,500.911,10.283,-170.007,36.240,400.000,0.000,230.000,MOVING,0.000000,0
1782262474.455186,ursim,0,-83.035050,-89.591951,-114.278888,-41.914363,82.744555,-1.608101,0.000000,0.000000,0.000000,0.000000,0.000000,0.000000,6.321628,6.820818,8.700285,3.191026,-6.299512,0.122428,83.327296,89.907273,114.681097,42.061882,-83.035778,1.613760,-105.621,-692.944,505.805,10.404,-169.752,36.944,400.000,0.000,230.000,MOVING,0.000000,0
1782262474.471828,ursim,0,-82.928475,-89.476959,-114.132211,-41.860566,82.638352,-1.606037,0.000000,0.000000,0.000000,0.000000,0.000000,0.000000,6.403890,6.909576,8.813500,3.232550,-6.381486,0.124021,-192.397614,-207.590379,-264.791619,-97.118306,191.724517,-3.726074,-104.530,-693.282,509.073,10.484,-169.581,37.412,400.000,0.000,230.000,MOVING,0.000000,0
1782262474.496543,ursim,0,-82.768611,-89.304472,-113.912195,-41.779870,82.479048,-1.602941,0.000000,0.000000,0.000000,0.000000,0.000000,0.000000,6.468355,6.979131,8.902221,3.265091,-6.445725,0.125270,87.240284,94.129253,120.066437,44.037077,-86.935077,1.689541,-102.896,-693.756,513.983,10.600,-169.324,38.115,400.000,0.000,230.000,MOVING,0.000000,0
1782262474.513807,ursim,0,-82.662035,-89.189480,-113.765518,-41.726073,82.372845,-1.600877,0.000000,0.000000,0.000000,0.000000,0.000000,0.000000,6.173499,6.660992,8.496420,3.116254,-6.151901,0.119559,-178.802981,-192.922239,-246.081694,-90.256018,178.177444,-3.462793,-101.808,-694.050,517.262,10.677,-169.151,38.583,400.000,0.000,230.000,MOVING,0.000000,0
1782262474.538700,ursim,0,-82.502172,-89.016993,-113.545502,-41.645377,82.213541,-1.597781,0.000000,0.000000,0.000000,0.000000,0.000000,0.000000,6.421830,6.928933,8.838190,3.241606,-6.399363,0.124369,85.989818,92.780043,118.345454,43.405868,-85.688985,1.665324,-100.178,-694.457,522.187,10.789,-168.892,39.285,400.000,0.000,230.000,MOVING,0.000000,0
1782262474.555781,ursim,0,-82.395596,-88.902002,-113.398825,-41.591580,82.107338,-1.595717,0.000000,0.000000,0.000000,0.000000,0.000000,0.000000,6.239420,6.732118,8.587144,3.149529,-6.217591,0.120836,-182.641865,-197.064262,-251.365045,-92.193807,182.002898,-3.537139,-99.093,-694.707,525.476,10.862,-168.718,39.752,400.000,0.000,230.000,MOVING,0.000000,0
1782262474.572503,ursim,0,-82.289021,-88.787010,-113.252147,-41.537783,82.001135,-1.593653,0.000000,0.000000,0.000000,0.000000,0.000000,0.000000,6.373485,6.876770,8.771654,3.217202,-6.351187,0.123432,-0.000000,-0.000000,-0.000000,-0.000000,-0.000000,-0.000000,-98.010,-694.939,528.768,10.935,-168.544,40.219,400.000,0.000,230.000,MOVING,0.000000,0
1782262474.597304,ursim,0,-82.129157,-88.614523,-113.032132,-41.457087,81.841831,-1.590557,0.000000,0.000000,0.000000,0.000000,0.000000,0.000000,6.445783,6.954777,8.871156,3.253697,-6.423232,0.124832,86.632483,93.473456,119.229936,43.730272,-86.329402,1.677770,-96.389,-695.254,533.713,11.041,-168.282,40.919,400.000,0.000,230.000,MOVING,0.000000,0
1782262474.614042,ursim,0,-82.022581,-88.499532,-112.885454,-41.403290,81.735628,-1.588493,0.000000,0.000000,0.000000,0.000000,0.000000,0.000000,6.367584,6.870403,8.763533,3.214223,-6.345307,0.123318,-190.222227,-205.243211,-261.797692,-96.020216,189.556740,-3.683944,-95.310,-695.441,537.015,11.110,-168.106,41.385,400.000,0.000,230.000,MOVING,0.000000,0
1782262474.639092,ursim,0,-81.862718,-88.327045,-112.665439,-41.322594,81.576324,-1.585397,0.000000,0.000000,0.000000,0.000000,0.000000,0.000000,6.381735,6.885671,8.783008,3.221367,-6.359408,0.123592,84.919402,91.625101,116.872270,42.865544,-84.622314,1.644594,-93.695,-695.689,541.974,11.212,-167.842,42.083,400.000,0.000,230.000,MOVING,0.000000,0
1782262474.656378,ursim,0,-81.756142,-88.212053,-112.518761,-41.268797,81.470121,-1.583333,0.000000,0.000000,0.000000,0.000000,0.000000,0.000000,6.165325,6.652173,8.485170,3.112128,-6.143756,0.119401,-178.329801,-192.411695,-245.430469,-90.017167,177.705920,-3.453629,-92.621,-695.832,545.284,11.278,-167.665,42.549,400.000,0.000,230.000,MOVING,0.000000,0
1782262474.681432,ursim,0,-81.596279,-88.039566,-112.298746,-41.188101,81.310817,-1.580237,0.000000,0.000000,0.000000,0.000000,0.000000,0.000000,6.380824,6.884688,8.781755,3.220907,-6.358501,0.123574,84.895160,91.598945,116.838907,42.853308,-84.598157,1.644124,-91.015,-696.013,550.255,11.376,-167.399,43.246,400.000,0.000,230.000,MOVING,0.000000,0
1782262474.697547,ursim,0,-81.489703,-87.924574,-112.152068,-41.134304,81.204614,-1.578173,0.000000,0.000000,0.000000,0.000000,0.000000,0.000000,6.613270,7.135489,9.101664,3.338241,-6.590133,0.128076,-205.184436,-221.386918,-282.389775,-103.572827,204.466604,-3.973710,-89.946,-696.111,553.573,11.440,-167.221,43.711,400.000,0.000,230.000,MOVING,0.000000,0
1782262474.714809,ursim,0,-81.383127,-87.809583,-112.005391,-41.080507,81.098411,-1.576109,0.000000,0.000000,0.000000,0.000000,0.000000,0.000000,6.173926,6.661452,8.497006,3.116469,-6.152326,0.119567,0.000000,0.000000,0.000000,0.000000,0.000000,0.000000,-88.880,-696.192,556.895,11.502,-167.043,44.175,400.000,0.000,230.000,MOVING,0.000000,0
1782262474.740108,ursim,0,-81.223264,-87.637096,-111.785375,-40.999811,80.939107,-1.573013,0.000000,0.000000,0.000000,0.000000,0.000000,0.000000,6.319006,6.817990,8.696677,3.189703,-6.296900,0.122377,83.258205,89.832727,114.586010,42.027007,-82.966929,1.612422,-87.285,-696.279,561.882,11.593,-166.774,44.870,400.000,0.000,230.000,MOVING,0.000000,0
1782262474.756822,ursim,0,-81.116688,-87.522104,-111.638698,-40.946014,80.832904,-1.570949,0.000000,0.000000,0.000000,0.000000,0.000000,0.000000,6.376394,6.879909,8.775658,3.218671,-6.354086,0.123489,-190.748996,-205.811577,-262.522671,-96.286118,190.081667,-3.694146,-86.226,-696.314,565.211,11.653,-166.594,45.334,400.000,0.000,230.000,MOVING,0.000000,0
1782262474.781874,ursim,0,-80.956825,-87.349617,-111.418682,-40.865318,80.673600,-1.567853,0.000000,0.000000,0.000000,0.000000,0.000000,0.000000,6.381370,6.885278,8.782507,3.221183,-6.359045,0.123585,84.909704,91.614637,116.858923,42.860649,-84.612650,1.644406,-84.641,-696.334,570.209,11.740,-166.324,46.028,400.000,0.000,230.000,MOVING,0.000000,0
1782262474.798343,ursim,0,-80.850249,-87.234626,-111.272005,-40.811521,80.567397,-1.565789,0.000000,0.000000,0.000000,0.000000,0.000000,0.000000,6.471289,6.982297,8.906259,3.266572,-6.448649,0.125326,-196.468757,-211.983001,-270.394622,-99.173334,195.781417,-3.804918,-83.588,-696.325,573.545,11.796,-166.143,46.491,400.000,0.000,230.000,MOVING,0.000000,0
1782262474.822452,ursim,0,-80.690386,-87.062138,-111.051989,-40.730825,80.408093,-1.562693,0.000000,0.000000,0.000000,0.000000,0.000000,0.000000,6.630895,7.154507,9.125921,3.347138,-6.607697,0.128417,91.679817,98.919355,126.176446,46.278061,-91.359078,1.775520,-82.014,-696.278,578.553,11.879,-165.870,47.184,400.000,0.000,230.000,MOVING,0.000000,0
1782262474.840220,ursim,0,-80.583810,-86.947147,-110.905312,-40.677028,80.301890,-1.560629,0.000000,0.000000,0.000000,0.000000,0.000000,0.000000,5.998131,6.471776,8.255065,3.027732,-5.977147,0.116163,-168.788903,-182.117395,-232.299589,-85.201120,168.198400,-3.268855,-80.969,-696.224,581.895,11.932,-165.688,47.645,400.000,0.000,230.000,MOVING,0.000000,0
1782262474.857307,ursim,0,-80.477234,-86.832156,-110.758635,-40.623231,80.195687,-1.558565,0.000000,0.000000,0.000000,0.000000,0.000000,0.000000,6.237330,6.729864,8.584268,3.148474,-6.215509,0.120795,0.000000,-0.000000,0.000000,-0.000000,0.000000,0.000000,-79.927,-696.152,585.239,11.985,-165.505,48.107,400.000,0.000,230.000,MOVING,0.000000,0
1782262474.882259,ursim,0,-80.317371,-86.659668,-110.538619,-40.542535,80.036383,-1.555469,0.000000,0.000000,0.000000,0.000000,0.000000,0.000000,6.406735,6.912646,8.817416,3.233986,-6.384321,0.124076,85.586053,92.344394,117.789763,43.202056,-85.286632,1.657505,-78.370,-696.011,590.260,12.061,-165.230,48.798,400.000,0.000,230.000,MOVING,0.000000,0
1782262474.899010,ursim,0,-80.210795,-86.544677,-110.391942,-40.488738,79.930180,-1.553405,0.000000,0.000000,0.000000,0.000000,0.000000,0.000000,6.362508,6.864926,8.756547,3.211661,-6.340249,0.123220,-189.919106,-204.916154,-261.380515,-95.867206,189.254679,-3.678074,-77.336,-695.894,593.610,12.111,-165.046,49.259,400.000,0.000,230.000,MOVING,0.000000,0
1782262474.923397,ursim,0,-80.050932,-86.372190,-110.171926,-40.408042,79.770876,-1.550309,0.000000,0.000000,0.000000,0.000000,0.000000,0.000000,6.555307,7.072949,9.021891,3.308982,-6.532373,0.126954,89.601539,96.676965,123.316168,45.228989,-89.288071,1.735271,-75.792,-695.686,598.639,12.183,-164.770,49.949,400.000,0.000,230.000,MOVING,0.000000,0
1782262474.940840,ursim,0,-79.944356,-86.257198,-110.025249,-40.354245,79.664673,-1.548245,0.000000,0.000000,0.000000,0.000000,0.000000,0.000000,6.109959,6.592435,8.408971,3.084180,-6.088584,0.118329,-175.141310,-188.971423,-241.042235,-88.407683,174.528583,-3.391879,-74.767,-695.524,601.994,12.229,-164.585,50.409,400.000,0.000,230.000,MOVING,0.000000,0
1782262474.957308,ursim,0,-79.837780,-86.142207,-109.878572,-40.300448,79.558470,-1.546181,0.000000,0.000000,0.000000,0.000000,0.000000,0.000000,6.471476,6.982499,8.906517,3.266666,-6.448836,0.125330,-0.000000,-0.000000,-0.000000,-0.000000,0.000000,-0.000000,-73.746,-695.344,605.351,12.275,-164.399,50.868,400.000,0.000,230.000,MOVING,0.000000,0
1782262474.982597,ursim,0,-79.677917,-85.969720,-109.658556,-40.219752,79.399166,-1.543085,0.000000,0.000000,0.000000,0.000000,0.000000,0.000000,6.321568,6.820754,8.700203,3.190996,-6.299452,0.122427,83.325725,89.905578,114.678935,42.061089,-83.034212,1.613730,-72.222,-695.041,610.390,12.341,-164.120,51.556,400.000,0.000,230.000,MOVING,0.000000,0
1782262474.999368,ursim,0,-79.571341,-85.854728,-109.511879,-40.165955,79.292963,-1.541021,0.000000,0.000000,0.000000,0.000000,0.000000,0.000000,6.354639,6.856436,8.745717,3.207689,-6.332408,0.123067,-189.449620,-204.409595,-260.734374,-95.630220,188.786836,-3.668981,-71.210,-694.817,613.751,12.383,-163.933,52.015,400.000,0.000,230.000,MOVING,0.000000,0
1782262475.023634,ursim,0,-79.411478,-85.682241,-109.291863,-40.085259,79.133659,-1.537925,0.000000,0.000000,0.000000,0.000000,0.000000,0.000000,6.587961,7.108182,9.066832,3.325465,-6.564913,0.127586,90.496441,97.642533,124.547798,45.680717,-90.179842,1.752602,-69.701,-694.447,618.796,12.445,-163.653,52.702,400.000,0.000,230.000,MOVING,0.000000,0
1782262475.041001,ursim,0,-79.304902,-85.567249,-109.145186,-40.031462,79.027456,-1.535861,0.000000,0.000000,0.000000,0.000000,0.000000,0.000000,6.136717,6.621306,8.445797,3.097687,-6.115248,0.118847,-176.678676,-190.630188,-243.158070,-89.183713,176.060571,-3.421652,-68.700,-694.177,622.161,12.484,-163.465,53.160,400.000,0.000,230.000,MOVING,0.000000,0
1782262475.066417,ursim,0,-79.145039,-85.394762,-108.925170,-39.950766,78.868152,-1.532765,0.000000,0.000000,0.000000,0.000000,0.000000,0.000000,6.289784,6.786459,8.656459,3.174952,-6.267779,0.121811,82.489915,89.003769,113.528633,41.639190,-82.201327,1.597543,-67.207,-693.740,627.211,12.541,-163.183,53.846,400.000,0.000,230.000,MOVING,0.000000,0
1782262475.083130,ursim,0,-79.038463,-85.279771,-108.778493,-39.896969,78.761949,-1.530701,0.000000,0.000000,0.000000,0.000000,0.000000,0.000000,6.376940,6.880498,8.776409,3.218946,-6.354630,0.123499,-190.781652,-205.846811,-262.567614,-96.302602,190.114208,-3.694778,-66.217,-693.426,630.579,12.578,-162.994,54.302,400.000,0.000,230.000,MOVING,0.000000,0
1782262475.108215,ursim,0,-78.878599,-85.107284,-108.558477,-39.816273,78.602645,-1.527605,0.000000,0.000000,0.000000,0.000000,0.000000,0.000000,6.372879,6.876116,8.770821,3.216897,-6.350584,0.123421,84.683889,91.370991,116.548140,42.746662,-84.387625,1.640033,-64.741,-692.921,635.633,12.631,-162.710,54.987,400.000,0.000,230.000,MOVING,0.000000,0
1782262475.124843,ursim,0,-78.772024,-84.992292,-108.411800,-39.762476,78.496442,-1.525541,0.000000,0.000000,0.000000,0.000000,0.000000,0.000000,6.409307,6.915421,8.820956,3.235285,-6.386885,0.124126,-192.723270,-207.941750,-265.239810,-97.282690,192.049033,-3.732380,-63.763,-692.562,639.004,12.664,-162.520,55.443,400.000,0.000,230.000,MOVING,0.000000,0
1782262475.141610,ursim,0,-78.665448,-84.877301,-108.265123,-39.708679,78.390239,-1.523477,0.000000,0.000000,0.000000,0.000000,0.000000,0.000000,6.356356,6.858288,8.748080,3.208556,-6.334118,0.123101,-0.000000,0.000000,-0.000000,-0.000000,-0.000000,0.000000,-62.789,-692.185,642.376,12.697,-162.330,55.898,400.000,0.000,230.000,MOVING,0.000000,0
1782262475.166799,ursim,0,-78.505585,-84.704814,-108.045107,-39.627983,78.230935,-1.520381,0.000000,0.000000,0.000000,0.000000,0.000000,0.000000,6.346639,6.847805,8.734708,3.203651,-6.324436,0.122912,83.987969,90.620117,115.590364,42.395376,-83.694139,1.626555,-61.339,-691.586,647.436,12.743,-162.043,56.581,400.000,0.000,230.000,MOVING,0.000000,0
1782262475.183506,ursim,0,-78.399009,-84.589822,-107.898430,-39.574186,78.124732,-1.518317,0.000000,0.000000,0.000000,0.000000,0.000000,0.000000,6.379033,6.882756,8.779290,3.220003,-6.356716,0.123540,-190.906909,-205.981960,-262.740002,-96.365829,190.239027,-3.697204,-60.378,-691.165,650.809,12.773,-161.852,57.036,400.000,0.000,230.000,MOVING,0.000000,0
1782262475.208391,ursim,0,-78.239145,-84.417335,-107.678414,-39.493490,77.965428,-1.515221,0.000000,0.000000,0.000000,0.000000,0.000000,0.000000,6.423922,6.931190,8.841069,3.242662,-6.401448,0.124409,86.045848,92.840497,118.422567,43.434151,-85.744819,1.666409,-58.946,-690.499,655.871,12.815,-161.564,57.717,400.000,0.000,230.000,MOVING,0.000000,0
1782262475.225492,ursim,0,-78.132570,-84.302343,-107.531737,-39.439693,77.859225,-1.513157,0.000000,0.000000,0.000000,0.000000,0.000000,0.000000,6.232112,6.724234,8.577087,3.145840,-6.210310,0.120694,-182.214329,-196.602966,-250.776639,-91.977996,181.576858,-3.528859,-57.998,-690.033,659.247,12.842,-161.372,58.171,400.000,0.000,230.000,MOVING,0.000000,0
1782262475.242096,ursim,0,-78.025994,-84.187352,-107.385060,-39.385896,77.753022,-1.511093,0.000000,0.000000,0.000000,0.000000,0.000000,0.000000,6.418695,6.925550,8.833875,3.240023,-6.396239,0.124308,-0.000000,-0.000000,0.000000,-0.000000,0.000000,-0.000000,-57.055,-689.549,662.622,12.867,-161.179,58.625,400.000,0.000,230.000,MOVING,0.000000,0
1782262475.267213,ursim,0,-77.866131,-84.014865,-107.165044,-39.305200,77.593718,-1.507997,0.000000,0.000000,0.000000,0.000000,0.000000,0.000000,6.364894,6.867500,8.759831,3.212866,-6.342626,0.123266,84.471802,91.142156,116.256250,42.639605,-84.176280,1.635925,-55.652,-688.789,667.686,12.903,-160.889,59.305,400.000,0.000,230.000,MOVING,0.000000,0
1782262475.283795,ursim,0,-77.759555,-83.899873,-107.018367,-39.251403,77.487515,-1.505933,0.000000,0.000000,0.000000,0.000000,0.000000,0.000000,6.427093,6.934611,8.845434,3.244263,-6.404608,0.124470,-193.794346,-209.097404,-266.713903,-97.823347,193.116362,-3.753123,-54.723,-688.261,671.062,12.926,-160.696,59.757,400.000,0.000,230.000,MOVING,0.000000,0
1782262475.309155,ursim,0,-77.599691,-83.727386,-106.798351,-39.170707,77.328211,-1.502837,0.000000,0.000000,0.000000,0.000000,0.000000,0.000000,6.303917,6.801708,8.675910,3.182086,-6.281863,0.122085,82.861038,89.404198,114.039400,41.826525,-82.571151,1.604731,-53.341,-687.435,676.127,12.957,-160.404,60.436,400.000,0.000,230.000,MOVING,0.000000,0
1782262475.324799,ursim,0,-77.493116,-83.612395,-106.651674,-39.116910,77.222008,-1.500773,0.000000,0.000000,0.000000,0.000000,0.000000,0.000000,6.812319,7.350257,9.375610,3.438717,-6.788486,0.131931,-217.721782,-234.914281,-299.644584,-109.901418,216.960089,-4.216515,-52.427,-686.862,679.503,12.977,-160.210,60.887,400.000,0.000,230.000,MOVING,0.000000,0
1782262475.350798,ursim,0,-77.333252,-83.439907,-106.431658,-39.036214,77.062704,-1.497677,0.000000,0.000000,0.000000,0.000000,0.000000,0.000000,6.148816,6.634360,8.462449,3.103794,-6.127305,0.119081,78.833798,85.058944,108.496818,39.793658,-78.558000,1.526737,-51.067,-685.969,684.567,13.004,-159.917,61.564,400.000,0.000,230.000,MOVING,0.000000,0
1782262475.367361,ursim,0,-77.226677,-83.324916,-106.284981,-38.982417,76.956501,-1.495613,0.000000,0.000000,0.000000,0.000000,0.000000,0.000000,6.434772,6.942897,8.856002,3.248139,-6.412260,0.124619,-194.257711,-209.597359,-267.351620,-98.057244,193.578107,-3.762097,-50.168,-685.352,687.943,13.020,-159.721,62.015,400.000,0.000,230.000,MOVING,0.000000,0
1782262475.392864,ursim,0,-77.066813,-83.152429,-106.064965,-38.901721,76.797197,-1.492517,0.000000,0.000000,0.000000,0.000000,0.000000,0.000000,6.268322,6.763303,8.626921,3.164118,-6.246392,0.121396,81.927931,88.397407,112.755190,41.355512,-81.641309,1.586659,-48.832,-684.393,693.006,13.043,-159.427,62.691,400.000,0.000,230.000,MOVING,0.000000,0
1782262475.409374,ursim,0,-76.960237,-83.037437,-105.918288,-38.847924,76.690994,-1.490453,0.000000,0.000000,0.000000,0.000000,0.000000,0.000000,6.455122,6.964853,8.884009,3.258411,-6.432539,0.125013,-195.488334,-210.925159,-269.045293,-98.678437,194.804424,-3.785930,-47.948,-683.731,696.381,13.057,-159.230,63.141,400.000,0.000,230.000,MOVING,0.000000,0
1782262475.425456,ursim,0,-76.853662,-82.922446,-105.771610,-38.794127,76.584792,-1.488389,0.000000,0.000000,0.000000,0.000000,0.000000,0.000000,6.626996,7.150299,9.120554,3.345169,-6.603811,0.128342,0.000000,0.000000,0.000000,0.000000,-0.000000,-0.000000,-47.071,-683.052,699.755,13.069,-159.033,63.591,400.000,0.000,230.000,MOVING,0.000000,0
1782262475.451350,ursim,0,-76.693798,-82.749959,-105.551595,-38.713431,76.425487,-1.485293,0.000000,0.000000,0.000000,0.000000,0.000000,0.000000,6.173840,6.661360,8.496889,3.116426,-6.152241,0.119566,79.476772,85.752692,109.381726,40.118218,-79.198725,1.539189,-45.768,-682.000,704.815,13.086,-158.737,64.264,400.000,0.000,230.000,MOVING,0.000000,0
1782262475.468189,ursim,0,-76.587223,-82.634967,-105.404917,-38.659634,76.319285,-1.483229,0.000000,0.000000,0.000000,0.000000,0.000000,0.000000,6.329176,6.828963,8.710674,3.194836,-6.307034,0.122574,-187.934425,-202.774752,-258.649053,-94.865381,187.276943,-3.639637,-44.908,-681.277,708.188,13.095,-158.539,64.713,400.000,0.000,230.000,MOVING,0.000000,0
1782262475.493458,ursim,0,-76.427359,-82.462480,-105.184902,-38.578938,76.159980,-1.480133,0.000000,0.000000,0.000000,0.000000,0.000000,0.000000,6.326399,6.825966,8.706852,3.193435,-6.304267,0.122520,83.453136,90.043050,114.854288,42.125404,-83.161178,1.616197,-43.630,-680.160,713.245,13.107,-158.242,65.386,400.000,0.000,230.000,MOVING,0.000000,0
1782262475.509971,ursim,0,-76.320783,-82.347489,-105.038224,-38.525141,76.053777,-1.478069,0.000000,0.000000,0.000000,0.000000,0.000000,0.000000,6.454190,6.963848,8.882726,3.257941,-6.431610,0.124995,-195.431887,-210.864255,-268.967606,-98.649944,194.748175,-3.784837,-42.787,-679.393,716.615,13.114,-158.043,65.834,400.000,0.000,230.000,MOVING,0.000000,0
1782262475.526935,ursim,0,-76.214208,-82.232497,-104.891547,-38.471344,75.947575,-1.476005,0.000000,0.000000,0.000000,0.000000,0.000000,0.000000,6.282388,6.778479,8.646280,3.171218,-6.260409,0.121668,0.000000,-0.000000,-0.000000,0.000000,0.000000,0.000000,-41.950,-678.609,719.984,13.119,-157.844,66.281,400.000,0.000,230.000,MOVING,0.000000,0
1782262475.552076,ursim,0,-76.054344,-82.060010,-104.671531,-38.390648,75.788270,-1.472909,0.000000,0.000000,0.000000,0.000000,0.000000,0.000000,6.358616,6.860727,8.751191,3.209697,-6.336371,0.123144,84.305264,90.962467,116.027048,42.555540,-84.010324,1.632700,-40.709,-677.399,725.035,13.125,-157.545,66.952,400.000,0.000,230.000,MOVING,0.000000,0
1782262475.568845,ursim,0,-75.947769,-81.945019,-104.524854,-38.336851,75.682068,-1.470845,0.000000,0.000000,0.000000,0.000000,0.000000,0.000000,6.355723,6.857606,8.747210,3.208237,-6.333488,0.123088,-189.514273,-204.479354,-260.823355,-95.662855,188.851263,-3.670233,-39.891,-676.571,728.401,13.127,-157.345,67.398,400.000,0.000,230.000,MOVING,0.000000,0
1782262475.594038,ursim,0,-75.787905,-81.772531,-104.304838,-38.256155,75.522763,-1.467749,0.000000,0.000000,0.000000,0.000000,0.000000,0.000000,6.345318,6.846379,8.732889,3.202984,-6.323119,0.122887,83.953001,90.582388,115.542238,42.377725,-83.659294,1.625878,-38.677,-675.297,733.447,13.129,-157.044,68.067,400.000,0.000,230.000,MOVING,0.000000,0
1782262475.610758,ursim,0,-75.681329,-81.657540,-104.158161,-38.202358,75.416561,-1.465685,0.000000,0.000000,0.000000,0.000000,0.000000,0.000000,6.374212,6.877554,8.772655,3.217569,-6.351912,0.123446,-190.618458,-205.670731,-262.343015,-96.220225,189.951585,-3.691618,-37.877,-674.426,736.809,13.128,-156.843,68.513,400.000,0.000,230.000,MOVING,0.000000,0
1782262475.635867,ursim,0,-75.521466,-81.485053,-103.938145,-38.121662,75.257256,-1.462589,0.000000,0.000000,0.000000,0.000000,0.000000,0.000000,6.366767,6.869522,8.762409,3.213811,-6.344493,0.123302,84.521539,91.195820,116.324702,42.664711,-84.225843,1.636889,-36.692,-673.086,741.849,13.125,-156.541,69.181,400.000,0.000,230.000,MOVING,0.000000,0
1782262475.651861,ursim,0,-75.414890,-81.370061,-103.791468,-38.067865,75.151054,-1.460525,0.000000,0.000000,0.000000,0.000000,0.000000,0.000000,6.663746,7.189952,9.171133,3.363720,-6.640433,0.129054,-208.328556,-224.779314,-286.716941,-105.159913,207.599724,-4.034601,-35.911,-672.172,745.207,13.121,-156.340,69.626,400.000,0.000,230.000,MOVING,0.000000,0
1782262475.669193,ursim,0,-75.308315,-81.255070,-103.644791,-38.014068,75.044851,-1.458461,0.000000,0.000000,0.000000,0.000000,0.000000,0.000000,6.149126,6.634695,8.462876,3.103951,-6.127614,0.119087,-0.000000,-0.000000,0.000000,0.000000,-0.000000,-0.000000,-35.138,-671.240,748.563,13.117,-156.138,70.070,400.000,0.000,230.000,MOVING,0.000000,0
1782262475.694123,ursim,0,-75.148451,-81.082583,-103.424775,-37.933372,74.885547,-1.455365,0.000000,0.000000,0.000000,0.000000,0.000000,0.000000,6.412372,6.918728,8.825174,3.236832,-6.389939,0.124185,85.736721,92.506960,117.997124,43.278110,-85.436773,1.660423,-33.993,-669.810,753.594,13.107,-155.834,70.736,400.000,0.000,230.000,MOVING,0.000000,0
1782262475.710817,ursim,0,-75.041875,-80.967591,-103.278098,-37.879575,74.779344,-1.453301,0.000000,0.000000,0.000000,0.000000,0.000000,0.000000,6.383952,6.888064,8.786061,3.222486,-6.361618,0.123635,-191.201476,-206.299788,-263.145407,-96.514520,190.532564,-3.702909,-33.240,-668.836,756.945,13.100,-155.631,71.180,400.000,0.000,230.000,MOVING,0.000000,0
1782262475.736428,ursim,0,-74.882012,-80.795104,-103.058082,-37.798879,74.620040,-1.450205,0.000000,0.000000,0.000000,0.000000,0.000000,0.000000,6.242120,6.735032,8.590861,3.150892,-6.220283,0.120888,81.244456,87.659961,111.814541,41.010508,-80.960225,1.573423,-32.125,-667.342,761.967,13.086,-155.326,71.844,400.000,0.000,230.000,MOVING,0.000000,0
1782262475.753033,ursim,0,-74.775436,-80.680112,-102.911405,-37.745082,74.513837,-1.448141,0.000000,0.000000,0.000000,0.000000,0.000000,0.000000,6.418326,6.925152,8.833368,3.239837,-6.395872,0.124301,-193.266020,-208.527358,-265.986781,-97.556659,192.589884,-3.742892,-31.393,-666.324,765.313,13.075,-155.123,72.287,400.000,0.000,230.000,MOVING,0.000000,0
1782262475.778153,ursim,0,-74.615573,-80.507625,-102.691389,-37.664386,74.354533,-1.445045,0.000000,0.000000,0.000000,0.000000,0.000000,0.000000,6.363927,6.866458,8.758500,3.212378,-6.341663,0.123247,84.446149,91.114477,116.220944,42.626656,-84.150716,1.635429,-30.309,-664.767,770.326,13.057,-154.817,72.950,400.000,0.000,230.000,MOVING,0.000000,0
1782262475.794582,ursim,0,-74.508997,-80.392634,-102.544712,-37.610589,74.248330,-1.442981,0.000000,0.000000,0.000000,0.000000,0.000000,0.000000,6.486972,6.999218,8.927843,3.274488,-6.464277,0.125630,-197.422189,-213.011722,-271.706805,-99.654607,196.731514,-3.823382,-29.597,-663.707,773.666,13.043,-154.612,73.391,400.000,0.000,230.000,MOVING,0.000000,0
1782262475.819743,ursim,0,-74.349134,-80.220147,-102.324696,-37.529893,74.089025,-1.439885,0.000000,0.000000,0.000000,0.000000,0.000000,0.000000,6.353676,6.855397,8.744391,3.207203,-6.331448,0.123049,84.174302,90.821163,115.846808,42.489433,-83.879820,1.630164,-28.546,-662.086,778.670,13.020,-154.305,74.053,400.000,0.000,230.000,MOVING,0.000000,0
1782262475.836783,ursim,0,-74.242558,-80.105155,-102.178019,-37.476096,73.982823,-1.437821,0.000000,0.000000,0.000000,0.000000,0.000000,0.000000,6.254348,6.748225,8.607689,3.157064,-6.232467,0.121125,-183.516868,-198.008361,-252.569289,-92.635490,182.874840,-3.554084,-27.856,-660.984,782.002,13.004,-154.100,74.494,400.000,0.000,230.000,MOVING,0.000000,0
1782262475.853325,ursim,0,-74.135982,-79.990164,-102.031342,-37.422299,73.876620,-1.435757,0.000000,0.000000,0.000000,0.000000,0.000000,0.000000,6.442934,6.951703,8.867235,3.252259,-6.420393,0.124777,-0.000000,-0.000000,-0.000000,0.000000,0.000000,-0.000000,-27.174,-659.865,785.332,12.986,-153.894,74.934,400.000,0.000,230.000,MOVING,0.000000,0
1782262475.878346,ursim,0,-73.976119,-79.817677,-101.811326,-37.341603,73.717316,-1.432661,0.000000,0.000000,0.000000,0.000000,0.000000,0.000000,6.389153,6.893676,8.793219,3.225112,-6.366801,0.123736,85.116955,91.838254,117.144157,42.965265,-84.819176,1.648420,-26.169,-658.156,790.321,12.957,-153.586,75.594,400.000,0.000,230.000,MOVING,0.000000,0
1782262475.895262,ursim,0,-73.869543,-79.702685,-101.664649,-37.287806,73.611113,-1.430597,0.000000,0.000000,0.000000,0.000000,0.000000,0.000000,6.300274,6.797778,8.670896,3.180247,-6.278233,0.122014,-186.221927,-200.927026,-256.292188,-94.000948,185.570436,-3.606472,-25.509,-656.996,793.643,12.936,-153.380,76.033,400.000,0.000,230.000,MOVING,0.000000,0
1782262475.920259,ursim,0,-73.709680,-79.530198,-101.444633,-37.207110,73.451809,-1.427501,0.000000,0.000000,0.000000,0.000000,0.000000,0.000000,6.395125,6.900119,8.801438,3.228126,-6.372752,0.123851,85.276145,92.010014,117.363245,43.045621,-84.977809,1.651503,-24.538,-655.224,798.621,12.902,-153.070,76.692,400.000,0.000,230.000,MOVING,0.000000,0
1782262475.937102,ursim,0,-73.603104,-79.415206,-101.297956,-37.153313,73.345606,-1.425437,0.000000,0.000000,0.000000,0.000000,0.000000,0.000000,6.327653,6.827319,8.708577,3.194067,-6.305516,0.122545,-187.843986,-202.677171,-258.524584,-94.819729,187.186820,-3.637886,-23.902,-654.022,801.935,12.879,-152.863,77.130,400.000,0.000,230.000,MOVING,0.000000,0
1782262475.962058,ursim,0,-73.443241,-79.242719,-101.077940,-37.072617,73.186302,-1.422341,0.000000,0.000000,0.000000,0.000000,0.000000,0.000000,6.405878,6.911721,8.816237,3.233554,-6.383468,0.124060,85.563160,92.319693,117.758256,43.190500,-85.263820,1.657061,-22.965,-652.188,806.900,12.841,-152.552,77.787,400.000,0.000,230.000,MOVING,0.000000,0
1782262475.978996,ursim,0,-73.336665,-79.127728,-100.931263,-37.018820,73.080099,-1.420277,0.000000,0.000000,0.000000,0.000000,0.000000,0.000000,6.292292,6.789166,8.659911,3.176218,-6.270279,0.121860,-185.750387,-200.418250,-255.643220,-93.762924,185.100545,-3.597340,-22.352,-650.945,810.206,12.814,-152.344,78.224,400.000,0.000,230.000,MOVING,0.000000,0
1782262475.995413,ursim,0,-73.230089,-79.012736,-100.784586,-36.965023,72.973896,-1.418213,0.000000,0.000000,0.000000,0.000000,0.000000,0.000000,6.491682,7.004301,8.934326,3.276866,-6.468971,0.125721,0.000000,-0.000000,0.000000,-0.000000,-0.000000,0.000000,-21.748,-649.686,813.508,12.786,-152.136,78.661,400.000,0.000,230.000,MOVING,0.000000,0
1782262476.020766,ursim,0,-73.070226,-78.840249,-100.564570,-36.884327,72.814592,-1.415117,0.000000,0.000000,0.000000,0.000000,0.000000,0.000000,6.305458,6.803371,8.678031,3.182864,-6.283399,0.122115,82.901562,89.447922,114.095172,41.846981,-82.611534,1.605515,-20.862,-647.766,818.454,12.741,-151.824,79.316,400.000,0.000,230.000,MOVING,0.000000,0
1782262476.037582,ursim,0,-72.963650,-78.725258,-100.417893,-36.830530,72.708389,-1.413053,0.000000,0.000000,0.000000,0.000000,0.000000,0.000000,6.337881,6.838354,8.722653,3.199230,-6.315708,0.122743,-188.451714,-203.332889,-259.360983,-95.126498,187.792421,-3.649655,-20.282,-646.465,821.747,12.710,-151.615,79.752,400.000,0.000,230.000,MOVING,0.000000,0
1782262476.062611,ursim,0,-72.803787,-78.552770,-100.197877,-36.749834,72.549085,-1.409957,0.000000,0.000000,0.000000,0.000000,0.000000,0.000000,6.387145,6.891509,8.790454,3.224098,-6.364800,0.123697,85.063451,91.780525,117.070520,42.938257,-84.765859,1.647384,-19.432,-644.485,826.678,12.661,-151.302,80.406,400.000,0.000,230.000,MOVING,0.000000,0
1782262476.079298,ursim,0,-72.697211,-78.437779,-100.051200,-36.696037,72.442882,-1.407893,0.000000,0.000000,0.000000,0.000000,0.000000,0.000000,6.386780,6.891115,8.789952,3.223913,-6.364436,0.123690,-191.370888,-206.482577,-263.378563,-96.600036,190.701383,-3.706189,-18.878,-643.144,829.961,12.627,-151.093,80.841,400.000,0.000,230.000,MOVING,0.000000,0
1782262476.104465,ursim,0,-72.537347,-78.265292,-99.831184,-36.615341,72.283578,-1.404797,0.000000,0.000000,0.000000,0.000000,0.000000,0.000000,6.351990,6.853578,8.742072,3.206352,-6.329768,0.123016,84.129653,90.772989,115.785359,42.466895,-83.835328,1.629299,-18.065,-641.103,834.878,12.574,-150.778,81.493,400.000,0.000,230.000,MOVING,0.000000,0
1782262476.121332,ursim,0,-72.430772,-78.150300,-99.684507,-36.561544,72.177375,-1.402733,0.000000,0.000000,0.000000,0.000000,0.000000,0.000000,6.318441,6.817379,8.695899,3.189417,-6.296336,0.122366,-187.297423,-202.087449,-257.772364,-94.543836,186.642169,-3.627301,-17.535,-639.722,838.150,12.537,-150.568,81.927,400.000,0.000,230.000,MOVING,0.000000,0
1782262476.138124,ursim,0,-72.324196,-78.035309,-99.537830,-36.507747,72.071172,-1.400669,0.000000,0.000000,0.000000,0.000000,0.000000,0.000000,6.347150,6.848356,8.735410,3.203909,-6.324945,0.122922,-0.000000,0.000000,0.000000,-0.000000,0.000000,-0.000000,-17.016,-638.325,841.418,12.499,-150.358,82.360,400.000,0.000,230.000,MOVING,0.000000,0
1782262476.163344,ursim,0,-72.164333,-77.862822,-99.317814,-36.427051,71.911868,-1.397573,0.000000,0.000000,0.000000,0.000000,0.000000,0.000000,6.338660,6.839195,8.723725,3.199623,-6.316484,0.122758,83.776905,90.392386,115.299882,42.288836,-83.483814,1.622468,-16.257,-636.201,846.311,12.439,-150.042,83.010,400.000,0.000,230.000,MOVING,0.000000,0
1782262476.180081,ursim,0,-72.057757,-77.747830,-99.171137,-36.373254,71.805665,-1.395509,0.000000,0.000000,0.000000,0.000000,0.000000,0.000000,6.367674,6.870501,8.763657,3.214269,-6.345397,0.123320,-190.227646,-205.249059,-261.805151,-96.022951,189.562141,-3.684049,-15.764,-634.764,849.568,12.398,-149.832,83.443,400.000,0.000,230.000,MOVING,0.000000,0
1782262476.205098,ursim,0,-71.897893,-77.575343,-98.951121,-36.292558,71.646361,-1.392413,0.000000,0.000000,0.000000,0.000000,0.000000,0.000000,6.390249,6.894858,8.794727,3.225665,-6.367893,0.123757,85.146161,91.869766,117.184352,42.980007,-84.848279,1.648985,-15.044,-632.580,854.444,12.333,-149.515,84.091,400.000,0.000,230.000,MOVING,0.000000,0
1782262476.221539,ursim,0,-71.791318,-77.460352,-98.804444,-36.238761,71.540158,-1.390349,0.000000,0.000000,0.000000,0.000000,0.000000,0.000000,6.481986,6.993839,8.920982,3.271972,-6.459309,0.125534,-197.118853,-212.684432,-271.289331,-99.501489,196.429238,-3.817508,-14.577,-631.105,857.689,12.289,-149.303,84.523,400.000,0.000,230.000,MOVING,0.000000,0
1782262476.246219,ursim,0,-71.631454,-77.287864,-98.584428,-36.158065,71.380854,-1.387253,0.000000,0.000000,0.000000,0.000000,0.000000,0.000000,6.477603,6.989110,8.914949,3.269759,-6.454941,0.125449,87.489930,94.398612,120.410018,44.163093,-87.183849,1.694376,-13.898,-628.862,862.547,12.220,-148.986,85.170,400.000,0.000,230.000,MOVING,0.000000,0
1782262476.263755,ursim,0,-71.524879,-77.172873,-98.437751,-36.104268,71.274651,-1.385189,0.000000,0.000000,0.000000,0.000000,0.000000,0.000000,6.077562,6.557479,8.364383,3.067826,-6.056299,0.117701,-173.288880,-186.972715,-238.492786,-87.472615,172.682634,-3.356004,-13.458,-627.348,865.780,12.173,-148.774,85.601,400.000,0.000,230.000,MOVING,0.000000,0
1782262476.280626,ursim,0,-71.418303,-77.057882,-98.291073,-36.050471,71.168448,-1.383125,0.000000,0.000000,0.000000,0.000000,0.000000,0.000000,6.317012,6.815838,8.693933,3.188696,-6.294912,0.122339,0.000000,0.000000,-0.000000,-0.000000,-0.000000,0.000000,-13.029,-625.818,869.007,12.124,-148.561,86.031,400.000,0.000,230.000,MOVING,0.000000,0
1782262476.305650,ursim,0,-71.258439,-76.885394,-98.071058,-35.969775,71.009144,-1.380029,0.000000,0.000000,0.000000,0.000000,0.000000,0.000000,6.388301,6.892756,8.792046,3.224681,-6.365952,0.123719,85.094250,91.813756,117.112909,42.953804,-84.796550,1.647980,-12.406,-623.494,873.838,12.049,-148.243,86.676,400.000,0.000,230.000,MOVING,0.000000,0
1782262476.322286,ursim,0,-71.151864,-76.770403,-97.924380,-35.915978,70.902941,-1.377965,0.000000,0.000000,0.000000,0.000000,0.000000,0.000000,6.406460,6.912349,8.817037,3.233847,-6.384047,0.124071,-192.552060,-207.757020,-265.004178,-97.196267,191.878422,-3.729065,-12.005,-621.926,877.053,11.998,-148.030,87.105,400.000,0.000,230.000,MOVING,0.000000,0
1782262476.347123,ursim,0,-70.992000,-76.597916,-97.704365,-35.835282,70.743637,-1.374868,0.000000,0.000000,0.000000,0.000000,0.000000,0.000000,6.436625,6.944896,8.858552,3.249074,-6.414107,0.124655,86.386495,93.208044,118.891391,43.606102,-86.084275,1.673006,-11.425,-619.545,881.864,11.918,-147.710,87.748,400.000,0.000,230.000,MOVING,0.000000,0
1782262476.364046,ursim,0,-70.885425,-76.482924,-97.557687,-35.781485,70.637434,-1.372804,0.000000,0.000000,0.000000,0.000000,0.000000,0.000000,6.297700,6.795001,8.667353,3.178948,-6.275667,0.121965,-186.069791,-200.762876,-256.082807,-93.924152,185.418831,-3.603526,-11.052,-617.939,885.064,11.863,-147.497,88.176,400.000,0.000,230.000,MOVING,0.000000,0
1782262476.389515,ursim,0,-70.725561,-76.310437,-97.337672,-35.700789,70.478130,-1.369708,0.000000,0.000000,0.000000,0.000000,0.000000,0.000000,6.276654,6.772293,8.638388,3.168324,-6.254695,0.121557,82.145881,88.632568,113.055149,41.465529,-81.858497,1.590880,-10.513,-615.502,889.855,11.779,-147.176,88.818,400.000,0.000,230.000,MOVING,0.000000,0
1782262476.405544,ursim,0,-70.618985,-76.195446,-97.190994,-35.646992,70.371927,-1.367644,0.000000,0.000000,0.000000,0.000000,0.000000,0.000000,6.648878,7.173910,9.150671,3.356215,-6.625617,0.128766,-207.399983,-223.777417,-285.438972,-104.691189,206.674401,-4.016617,-10.169,-613.858,893.041,11.721,-146.962,89.245,400.000,0.000,230.000,MOVING,0.000000,0
1782262476.422839,ursim,0,-70.512410,-76.080454,-97.044317,-35.593195,70.265724,-1.365580,0.000000,0.000000,0.000000,0.000000,0.000000,0.000000,6.162435,6.649055,8.481193,3.110669,-6.140876,0.119345,0.000000,0.000000,0.000000,-0.000000,0.000000,0.000000,-9.836,-612.200,896.222,11.662,-146.748,89.672,400.000,0.000,230.000,MOVING,0.000000,0
1782262476.447943,ursim,0,-70.352546,-75.907967,-96.824302,-35.512499,70.106420,-1.362484,0.000000,0.000000,0.000000,0.000000,0.000000,0.000000,6.367856,6.870696,8.763907,3.214361,-6.345578,0.123323,84.550438,91.227002,116.364475,42.679299,-84.254641,1.637448,-9.359,-609.684,900.981,11.572,-146.426,90.311,400.000,0.000,230.000,MOVING,0.000000,0
1782262476.464753,ursim,0,-70.245971,-75.792975,-96.677624,-35.458702,70.000217,-1.360420,0.000000,0.000000,0.000000,0.000000,0.000000,0.000000,6.340128,6.840779,8.725746,3.200365,-6.317947,0.122786,-188.585382,-203.477112,-259.544947,-95.193970,187.925622,-3.652244,-9.055,-607.989,904.147,11.510,-146.211,90.737,400.000,0.000,230.000,MOVING,0.000000,0
1782262476.489598,ursim,0,-70.086107,-75.620488,-96.457609,-35.378006,69.840913,-1.357324,0.000000,0.000000,0.000000,0.000000,0.000000,0.000000,6.434401,6.942497,8.855492,3.247952,-6.411891,0.124612,86.326819,93.143655,118.809260,43.575979,-86.024807,1.671851,-8.622,-605.419,908.883,11.415,-145.889,91.375,400.000,0.000,230.000,MOVING,0.000000,0
1782262476.506464,ursim,0,-69.979531,-75.505497,-96.310931,-35.324209,69.734710,-1.355260,0.000000,0.000000,0.000000,0.000000,0.000000,0.000000,6.318887,6.817861,8.696513,3.189643,-6.296781,0.122375,-187.323900,-202.116017,-257.808804,-94.557201,186.668553,-3.627813,-8.348,-603.687,912.033,11.350,-145.673,91.800,400.000,0.000,230.000,MOVING,0.000000,0
1782262476.531345,ursim,0,-69.819668,-75.333010,-96.090916,-35.243513,69.575406,-1.352164,0.000000,0.000000,0.000000,0.000000,0.000000,0.000000,6.425276,6.932651,8.842933,3.243345,-6.402797,0.124435,86.082131,92.879646,118.472503,43.452466,-85.780976,1.667112,-7.960,-601.062,916.746,11.250,-145.350,92.436,400.000,0.000,230.000,MOVING,0.000000,0
1782262476.547493,ursim,0,-69.713092,-75.218018,-95.944238,-35.189716,69.469203,-1.350100,0.000000,0.000000,0.000000,0.000000,0.000000,0.000000,6.599893,7.121056,9.083253,3.331488,-6.576803,0.127817,-204.355207,-220.492208,-281.248529,-103.154249,203.640276,-3.957651,-7.716,-599.294,919.880,11.182,-145.134,92.860,400.000,0.000,230.000,MOVING,0.000000,0
1782262476.565465,ursim,0,-69.606517,-75.103027,-95.797561,-35.135919,69.363000,-1.348036,0.000000,0.000000,0.000000,0.000000,0.000000,0.000000,5.929940,6.398200,8.161216,2.993310,-5.909194,0.114842,-0.000000,-0.000000,-0.000000,0.000000,-0.000000,-0.000000,-7.484,-597.512,923.007,11.112,-144.918,93.283,400.000,0.000,230.000,MOVING,0.000000,0
1782262476.590580,ursim,0,-69.446653,-74.930540,-95.577545,-35.055223,69.203696,-1.344940,0.000000,0.000000,0.000000,0.000000,0.000000,0.000000,6.365317,6.867957,8.760413,3.213079,-6.343048,0.123274,84.483029,91.154270,116.271702,42.645272,-84.187468,1.636143,-7.160,-594.812,927.686,11.006,-144.594,93.917,400.000,0.000,230.000,MOVING,0.000000,0
1782262476.607440,ursim,0,-69.340077,-74.815548,-95.430868,-35.001426,69.097493,-1.342876,0.000000,0.000000,0.000000,0.000000,0.000000,0.000000,6.321389,6.820561,8.699957,3.190906,-6.299274,0.122423,-187.472275,-202.276109,-258.013009,-94.632098,186.816409,-3.630687,-6.959,-592.995,930.796,10.934,-144.377,94.339,400.000,0.000,230.000,MOVING,0.000000,0
1782262476.632427,ursim,0,-69.180214,-74.643061,-95.210852,-34.920730,68.938189,-1.339780,0.000000,0.000000,0.000000,0.000000,0.000000,0.000000,6.397688,6.902884,8.804965,3.229420,-6.375306,0.123901,85.344506,92.083773,117.457329,43.080128,-85.045930,1.652827,-6.682,-590.242,935.449,10.823,-144.052,94.971,400.000,0.000,230.000,MOVING,0.000000,0
1782262476.649162,ursim,0,-69.073638,-74.528069,-95.064175,-34.866933,68.831986,-1.337716,0.000000,0.000000,0.000000,0.000000,0.000000,0.000000,6.368491,6.871381,8.764781,3.214681,-6.346211,0.123336,-190.276432,-205.301697,-261.872293,-96.047577,189.610756,-3.684994,-6.512,-588.390,938.542,10.747,-143.835,95.392,400.000,0.000,230.000,MOVING,0.000000,0
1782262476.674064,ursim,0,-68.913775,-74.355582,-94.844159,-34.786237,68.672682,-1.334620,0.000000,0.000000,0.000000,0.000000,0.000000,0.000000,6.419801,6.926743,8.835398,3.240582,-6.397341,0.124329,85.935489,92.721423,118.270682,43.378444,-85.634846,1.664272,-6.282,-585.586,943.168,10.632,-143.510,96.023,400.000,0.000,230.000,MOVING,0.000000,0
1782262476.689774,ursim,0,-68.807199,-74.240591,-94.697482,-34.732440,68.566479,-1.332556,0.000000,0.000000,0.000000,0.000000,0.000000,0.000000,6.784094,7.319803,9.336764,3.424469,-6.760360,0.131384,-215.921387,-232.971717,-297.166750,-108.992616,215.165993,-4.181647,-6.144,-583.699,946.243,10.553,-143.292,96.443,400.000,0.000,230.000,MOVING,0.000000,0
1782262476.716025,ursim,0,-68.647336,-74.068104,-94.477466,-34.651744,68.407175,-1.329460,0.000000,0.000000,0.000000,0.000000,0.000000,0.000000,6.089733,6.570611,8.381134,3.073970,-6.068428,0.117937,77.326061,83.432148,106.421761,39.032584,-77.055538,1.497537,-5.961,-580.843,950.842,10.433,-142.966,97.072,400.000,0.000,230.000,MOVING,0.000000,0
1782262476.732671,ursim,0,-68.540760,-73.953112,-94.330789,-34.597947,68.300972,-1.327396,0.000000,0.000000,0.000000,0.000000,0.000000,0.000000,6.402514,6.908092,8.811607,3.231856,-6.380115,0.123994,-192.314952,-207.501189,-264.677853,-97.076580,191.642144,-3.724473,-5.855,-578.923,953.899,10.352,-142.748,97.491,400.000,0.000,230.000,MOVING,0.000000,0
1782262476.749527,ursim,0,-68.434184,-73.838121,-94.184112,-34.544150,68.194769,-1.325332,0.000000,0.000000,0.000000,0.000000,0.000000,0.000000,6.322462,6.821718,8.701433,3.191447,-6.300343,0.122444,-0.000000,0.000000,-0.000000,0.000000,0.000000,-0.000000,-5.763,-576.989,956.948,10.269,-142.530,97.910,400.000,0.000,230.000,MOVING,0.000000,0
1782262476.774723,ursim,0,-68.274321,-73.665633,-93.964096,-34.463454,68.035465,-1.322236,0.000000,0.000000,0.000000,0.000000,0.000000,0.000000,6.345018,6.846055,8.732476,3.202833,-6.322820,0.122881,83.945057,90.573816,115.531305,42.373715,-83.651377,1.625724,-5.648,-574.062,961.507,10.142,-142.202,98.536,400.000,0.000,230.000,MOVING,0.000000,0
1782262476.791476,ursim,0,-68.167745,-73.550642,-93.817419,-34.409657,67.929262,-1.320172,0.000000,0.000000,0.000000,0.000000,0.000000,0.000000,6.361512,6.863852,8.755177,3.211159,-6.339257,0.123200,-189.859649,-204.852002,-261.298686,-95.837194,189.195431,-3.676922,-5.588,-572.095,964.537,10.056,-141.984,98.954,400.000,0.000,230.000,MOVING,0.000000,0
1782262476.816611,ursim,0,-68.007882,-73.378155,-93.597403,-34.328961,67.769958,-1.317076,0.000000,0.000000,0.000000,0.000000,0.000000,0.000000,6.360064,6.862289,8.753183,3.210428,-6.337813,0.123172,84.343652,91.003886,116.079881,42.574918,-84.048578,1.633444,-5.522,-569.120,969.067,9.925,-141.655,99.579,400.000,0.000,230.000,MOVING,0.000000,0
1782262476.833211,ursim,0,-67.901306,-73.263163,-93.450726,-34.275164,67.663755,-1.315012,0.000000,0.000000,0.000000,0.000000,0.000000,0.000000,6.420262,6.927241,8.836032,3.240814,-6.397801,0.124338,-193.382621,-208.653167,-266.147257,-97.615517,192.706078,-3.745150,-5.495,-567.120,972.078,9.836,-141.437,99.995,400.000,0.000,230.000,MOVING,0.000000,0
1782262476.858397,ursim,0,-67.741443,-73.090676,-93.230710,-34.194468,67.504451,-1.311916,0.000000,0.000000,0.000000,0.000000,0.000000,0.000000,6.347420,6.848647,8.735783,3.204046,-6.325214,0.122927,84.008642,90.642422,115.618815,42.405812,-83.714740,1.626956,-5.480,-564.096,976.578,9.700,-141.108,100.618,400.000,0.000,230.000,MOVING,0.000000,0
1782262476.874688,ursim,0,-67.634867,-72.975685,-93.084033,-34.140671,67.398248,-1.309852,0.000000,0.000000,0.000000,0.000000,0.000000,0.000000,6.541940,7.058527,9.003494,3.302235,-6.519053,0.126695,-200.782112,-216.636962,-276.330975,-101.350626,200.079682,-3.888452,-5.486,-562.064,979.568,9.608,-140.888,101.033,400.000,0.000,230.000,MOVING,0.000000,0
1782262476.891729,ursim,0,-67.528291,-72.860693,-92.937356,-34.086874,67.292046,-1.307788,0.000000,0.000000,0.000000,0.000000,0.000000,0.000000,6.253910,6.747753,8.607087,3.156843,-6.232031,0.121117,0.000000,0.000000,0.000000,0.000000,-0.000000,0.000000,-5.506,-560.019,982.550,9.514,-140.669,101.448,400.000,0.000,230.000,MOVING,0.000000,0
1782262476.916523,ursim,0,-67.368428,-72.688206,-92.717340,-34.006178,67.132741,-1.304692,0.000000,0.000000,0.000000,0.000000,0.000000,0.000000,6.447642,6.956783,8.873715,3.254635,-6.425085,0.124868,86.682473,93.527394,119.298737,43.755506,-86.379217,1.678738,-5.561,-556.929,987.007,9.372,-140.339,102.069,400.000,0.000,230.000,MOVING,0.000000,0
1782262476.933095,ursim,0,-67.261852,-72.573215,-92.570663,-33.952381,67.026538,-1.302628,0.000000,0.000000,0.000000,0.000000,0.000000,0.000000,6.431346,6.939201,8.851288,3.246410,-6.408847,0.124553,-194.050946,-209.374267,-267.067054,-97.952873,193.372064,-3.758093,-5.615,-554.852,989.967,9.276,-140.119,102.483,400.000,0.000,230.000,MOVING,0.000000,0
1782262476.958558,ursim,0,-67.101989,-72.400727,-92.350647,-33.871685,66.867234,-1.299532,0.000000,0.000000,0.000000,0.000000,0.000000,0.000000,6.278299,6.774068,8.640653,3.169155,-6.256335,0.121589,82.188960,88.679049,113.114437,41.487274,-81.901425,1.591715,-5.721,-551.715,994.393,9.128,-139.789,103.102,400.000,0.000,230.000,MOVING,0.000000,0
1782262476.975448,ursim,0,-66.995413,-72.285736,-92.203970,-33.817888,66.761031,-1.297468,0.000000,0.000000,0.000000,0.000000,0.000000,0.000000,6.309968,6.808237,8.684237,3.185140,-6.287892,0.122202,-186.795424,-201.545809,-257.081476,-94.290437,186.141925,-3.617579,-5.809,-549.608,997.332,9.029,-139.569,103.514,400.000,0.000,230.000,MOVING,0.000000,0
1782262477.000480,ursim,0,-66.835549,-72.113249,-91.983954,-33.737192,66.601727,-1.294372,0.000000,0.000000,0.000000,0.000000,0.000000,0.000000,6.386293,6.890590,8.789282,3.223668,-6.363951,0.123680,85.040767,91.756050,117.039301,42.926807,-84.743255,1.646944,-5.967,-546.425,1001.724,8.877,-139.238,104.132,400.000,0.000,230.000,MOVING,0.000000,0
1782262477.017016,ursim,0,-66.728974,-71.998257,-91.837277,-33.683395,66.495524,-1.292308,0.000000,0.000000,0.000000,0.000000,0.000000,0.000000,6.445163,6.954108,8.870303,3.253384,-6.422615,0.124820,-194.885615,-210.274845,-268.215786,-98.374197,194.203813,-3.774258,-6.090,-544.288,1004.642,8.774,-139.018,104.543,400.000,0.000,230.000,MOVING,0.000000,0
1782262477.034011,ursim,0,-66.622398,-71.883266,-91.690600,-33.629598,66.389322,-1.290244,0.000000,0.000000,0.000000,0.000000,0.000000,0.000000,6.271018,6.766212,8.630633,3.165479,-6.249079,0.121448,-0.000000,0.000000,-0.000000,-0.000000,0.000000,0.000000,-6.227,-542.139,1007.550,8.670,-138.797,104.953,400.000,0.000,230.000,MOVING,0.000000,0
1782262477.059109,ursim,0,-66.462535,-71.710779,-91.470584,-33.548902,66.230017,-1.287148,0.000000,0.000000,0.000000,0.000000,0.000000,0.000000,6.369368,6.872328,8.765988,3.215124,-6.347085,0.123353,84.590601,91.270336,116.419750,42.699573,-84.294664,1.638226,-6.459,-538.893,1011.895,8.512,-138.465,105.569,400.000,0.000,230.000,MOVING,0.000000,0
1782262477.075822,ursim,0,-66.355959,-71.595787,-91.323907,-33.495105,66.123815,-1.285084,0.000000,0.000000,0.000000,0.000000,0.000000,0.000000,6.376940,6.880498,8.776409,3.218946,-6.354630,0.123499,-190.781652,-205.846811,-262.567614,-96.302602,190.114208,-3.694778,-6.630,-536.714,1014.781,8.405,-138.244,105.978,400.000,0.000,230.000,MOVING,0.000000,0
1782262477.100558,ursim,0,-66.196095,-71.423300,-91.103891,-33.414409,65.964510,-1.281988,0.000000,0.000000,0.000000,0.000000,0.000000,0.000000,6.462743,6.973077,8.894499,3.262258,-6.440134,0.125161,87.088995,93.966016,119.858221,43.960709,-86.784316,1.686611,-6.915,-533.425,1019.092,8.242,-137.912,106.591,400.000,0.000,230.000,MOVING,0.000000,0
1782262477.117626,ursim,0,-66.089520,-71.308309,-90.957214,-33.360612,65.858308,-1.279924,0.000000,0.000000,0.000000,0.000000,0.000000,0.000000,6.244388,6.737479,8.593981,3.152037,-6.222542,0.120932,-182.932836,-197.378210,-251.765501,-92.340683,182.292851,-3.542774,-7.122,-531.217,1021.954,8.131,-137.691,107.000,400.000,0.000,230.000,MOVING,0.000000,0
1782262477.134395,ursim,0,-65.982944,-71.193317,-90.810536,-33.306815,65.752105,-1.277860,0.000000,0.000000,0.000000,0.000000,0.000000,0.000000,6.355362,6.857216,8.746712,3.208054,-6.333128,0.123081,0.000000,0.000000,0.000000,0.000000,-0.000000,-0.000000,-7.344,-528.999,1024.807,8.020,-137.469,107.407,400.000,0.000,230.000,MOVING,0.000000,0
1782262477.159404,ursim,0,-65.823081,-71.020830,-90.590521,-33.226119,65.592801,-1.274764,0.000000,0.000000,0.000000,0.000000,0.000000,0.000000,6.392199,6.896962,8.797410,3.226649,-6.369836,0.123795,85.198118,91.925826,117.255860,43.006235,-84.900055,1.649992,-7.704,-525.649,1029.069,7.850,-137.136,108.018,400.000,0.000,230.000,MOVING,0.000000,0
1782262477.176243,ursim,0,-65.716505,-70.905838,-90.443843,-33.172322,65.486598,-1.272700,0.000000,0.000000,0.000000,0.000000,0.000000,0.000000,6.329087,6.828866,8.710550,3.194791,-6.306945,0.122572,-187.929104,-202.769010,-258.641729,-94.862695,187.271639,-3.639534,-7.961,-523.403,1031.898,7.735,-136.914,108.425,400.000,0.000,230.000,MOVING,0.000000,0
1782262477.201336,ursim,0,-65.556641,-70.733351,-90.223828,-33.091626,65.327293,-1.269604,0.000000,0.000000,0.000000,0.000000,0.000000,0.000000,6.370820,6.873895,8.767987,3.215857,-6.348532,0.123381,84.629184,91.311966,116.472851,42.719049,-84.333112,1.638973,-8.375,-520.012,1036.123,7.561,-136.581,109.034,400.000,0.000,230.000,MOVING,0.000000,0
1782262477.218099,ursim,0,-65.450066,-70.618360,-90.077151,-33.037829,65.221091,-1.267540,0.000000,0.000000,0.000000,0.000000,0.000000,0.000000,6.358074,6.860142,8.750444,3.209423,-6.335830,0.123134,-189.654468,-204.630619,-261.016302,-95.733623,188.990968,-3.672948,-8.669,-517.737,1038.927,7.443,-136.359,109.439,400.000,0.000,230.000,MOVING,0.000000,0
1782262477.243215,ursim,0,-65.290202,-70.445873,-89.857135,-32.957133,65.061786,-1.264444,0.000000,0.000000,0.000000,0.000000,0.000000,0.000000,6.365015,6.867631,8.759997,3.212927,-6.342747,0.123268,84.475010,91.145617,116.260665,42.641224,-84.179476,1.635988,-9.138,-514.306,1043.115,7.264,-136.025,110.046,400.000,0.000,230.000,MOVING,0.000000,0
1782262477.259940,ursim,0,-65.183627,-70.330881,-89.710458,-32.903336,64.955584,-1.262380,0.000000,0.000000,0.000000,0.000000,0.000000,0.000000,6.372213,6.875398,8.769904,3.216560,-6.349920,0.123408,-190.498916,-205.541749,-262.178492,-96.159883,189.832461,-3.689302,-9.468,-512.005,1045.895,7.143,-135.802,110.450,400.000,0.000,230.000,MOVING,0.000000,0
1782262477.285064,ursim,0,-65.023763,-70.158394,-89.490442,-32.822640,64.796279,-1.259284,0.000000,0.000000,0.000000,0.000000,0.000000,0.000000,6.362840,6.865285,8.757004,3.211829,-6.340580,0.123226,84.417303,91.083353,116.181244,42.612095,-84.121971,1.634870,-9.992,-508.533,1050.045,6.959,-135.468,111.055,400.000,0.000,230.000,MOVING,0.000000,0
1782262477.301765,ursim,0,-64.917187,-70.043403,-89.343765,-32.768843,64.690077,-1.257220,0.000000,0.000000,0.000000,0.000000,0.000000,0.000000,6.381492,6.885409,8.782674,3.221244,-6.359166,0.123587,-191.054108,-206.140782,-262.942587,-96.440132,190.385711,-3.700055,-10.359,-506.206,1052.799,6.834,-135.245,111.458,400.000,0.000,230.000,MOVING,0.000000,0
1782262477.318503,ursim,0,-64.810612,-69.928411,-89.197087,-32.715046,64.583874,-1.255156,0.000000,0.000000,0.000000,0.000000,0.000000,0.000000,6.367221,6.870011,8.763033,3.214040,-6.344945,0.123311,0.000000,0.000000,0.000000,-0.000000,0.000000,0.000000,-10.741,-503.868,1055.543,6.709,-135.022,111.861,400.000,0.000,230.000,MOVING,0.000000,0
1782262477.343329,ursim,0,-64.650748,-69.755924,-88.977072,-32.634350,64.424570,-1.252060,0.000000,0.000000,0.000000,0.000000,0.000000,0.000000,6.439345,6.947831,8.862296,3.250447,-6.416817,0.124708,86.459517,93.286832,118.991889,43.642962,-86.157041,1.674421,-11.342,-500.343,1059.639,6.518,-134.688,112.463,400.000,0.000,230.000,MOVING,0.000000,0
1782262477.360372,ursim,0,-64.544173,-69.640932,-88.830394,-32.580553,64.318367,-1.249996,0.000000,0.000000,0.000000,0.000000,0.000000,0.000000,6.253473,6.747281,8.606485,3.156623,-6.231595,0.121108,-183.465525,-197.952964,-252.498627,-92.609574,182.823677,-3.553090,-11.762,-497.980,1062.357,6.390,-134.464,112.864,400.000,0.000,230.000,MOVING,0.000000,0
1782262477.385413,ursim,0,-64.384309,-69.468445,-88.610379,-32.499857,64.159063,-1.246900,0.000000,0.000000,0.000000,0.000000,0.000000,0.000000,6.383922,6.888031,8.786019,3.222471,-6.361588,0.123634,84.977625,91.687921,116.952401,42.894934,-84.680333,1.645721,-12.419,-494.417,1066.414,6.194,-134.129,113.465,400.000,0.000,230.000,MOVING,0.000000,0
1782262477.402368,ursim,0,-64.277733,-69.353454,-88.463701,-32.446060,64.052860,-1.244836,0.000000,0.000000,0.000000,0.000000,0.000000,0.000000,6.285833,6.782197,8.651022,3.172958,-6.263842,0.121735,-185.369229,-200.006994,-255.118643,-93.570524,184.720721,-3.589958,-12.876,-492.029,1069.105,6.062,-133.906,113.865,400.000,0.000,230.000,MOVING,0.000000,0
1782262477.418618,ursim,0,-64.171158,-69.238462,-88.317024,-32.392263,63.946657,-1.242772,0.000000,0.000000,0.000000,0.000000,0.000000,0.000000,6.558448,7.076339,9.026215,3.310568,-6.535504,0.127014,-0.000000,0.000000,0.000000,-0.000000,0.000000,-0.000000,-13.348,-489.632,1071.785,5.929,-133.682,114.264,400.000,0.000,230.000,MOVING,0.000000,0
1782262477.444103,ursim,0,-64.011294,-69.065975,-88.097008,-32.311567,63.787353,-1.239676,0.000000,0.000000,0.000000,0.000000,0.000000,0.000000,6.272954,6.768301,8.633297,3.166457,-6.251009,0.121485,82.049078,88.528121,112.921921,41.416665,-81.762032,1.589006,-14.085,-486.018,1075.785,5.727,-133.346,114.862,400.000,0.000,230.000,MOVING,0.000000,0
1782262477.460861,ursim,0,-63.904719,-68.950984,-87.950331,-32.257770,63.681150,-1.237612,0.000000,0.000000,0.000000,0.000000,0.000000,0.000000,6.359521,6.861703,8.752436,3.210154,-6.337272,0.123162,-189.740820,-204.723789,-261.135144,-95.777211,189.077017,-3.674621,-14.594,-483.597,1078.438,5.591,-133.122,115.260,400.000,0.000,230.000,MOVING,0.000000,0
1782262477.485221,ursim,0,-63.744855,-68.778496,-87.730315,-32.177074,63.521846,-1.234516,0.000000,0.000000,0.000000,0.000000,0.000000,0.000000,6.562557,7.080772,9.031869,3.312642,-6.539598,0.127094,89.799841,96.890926,123.589086,45.329088,-89.485679,1.739111,-15.388,-479.948,1082.397,5.384,-132.786,115.856,400.000,0.000,230.000,MOVING,0.000000,0
1782262477.502345,ursim,0,-63.638279,-68.663505,-87.583638,-32.123277,63.415643,-1.232452,0.000000,0.000000,0.000000,0.000000,0.000000,0.000000,6.224042,6.715527,8.565981,3.141767,-6.202268,0.120538,-181.742734,-196.094131,-250.127596,-91.739945,181.106913,-3.519726,-15.936,-477.504,1085.022,5.244,-132.562,116.253,400.000,0.000,230.000,MOVING,0.000000,0
1782262477.527484,ursim,0,-63.478416,-68.491018,-87.363622,-32.042581,63.256339,-1.229356,0.000000,0.000000,0.000000,0.000000,0.000000,0.000000,6.359039,6.861183,8.751772,3.209910,-6.336792,0.123152,84.316457,90.974545,116.042454,42.561191,-84.021479,1.632917,-16.786,-473.821,1088.939,5.032,-132.226,116.847,400.000,0.000,230.000,MOVING,0.000000,0
1782262477.544181,ursim,0,-63.371840,-68.376026,-87.216945,-31.988784,63.150136,-1.227292,0.000000,0.000000,0.000000,0.000000,0.000000,0.000000,6.382859,6.886884,8.784555,3.221934,-6.360528,0.123614,-191.135958,-206.229096,-263.055236,-96.481448,190.467275,-3.701640,-17.373,-471.354,1091.536,4.889,-132.001,117.242,400.000,0.000,230.000,MOVING,0.000000,0
1782262477.561358,ursim,0,-63.265265,-68.261035,-87.070268,-31.934987,63.043933,-1.225228,0.000000,0.000000,0.000000,0.000000,0.000000,0.000000,6.204691,6.694647,8.539347,3.131999,-6.182984,0.120163,-0.000000,0.000000,0.000000,-0.000000,0.000000,-0.000000,-17.974,-468.879,1094.121,4.745,-131.777,117.637,400.000,0.000,230.000,MOVING,0.000000,0
1782262477.585538,ursim,0,-63.105401,-68.088548,-86.850252,-31.854291,62.884629,-1.222132,0.000000,0.000000,0.000000,0.000000,0.000000,0.000000,6.611281,7.133344,9.098926,3.337237,-6.588151,0.128038,91.138242,98.335014,125.431091,46.004685,-90.819398,1.765031,-18.906,-465.149,1097.978,4.527,-131.440,118.229,400.000,0.000,230.000,MOVING,0.000000,0
1782262477.602820,ursim,0,-62.998825,-67.973556,-86.703575,-31.800494,62.778426,-1.220068,0.000000,0.000000,0.000000,0.000000,0.000000,0.000000,6.167111,6.654100,8.487628,3.113029,-6.145536,0.119436,-178.433149,-192.523203,-245.572703,-90.069335,177.808906,-3.455630,-19.546,-462.652,1100.535,4.379,-131.215,118.622,400.000,0.000,230.000,MOVING,0.000000,0
1782262477.627851,ursim,0,-62.838962,-67.801069,-86.483559,-31.719798,62.619122,-1.216972,0.000000,0.000000,0.000000,0.000000,0.000000,0.000000,6.386597,6.890918,8.789701,3.223821,-6.364254,0.123686,85.048867,91.764790,117.050450,42.930896,-84.751326,1.647101,-20.536,-458.891,1104.348,4.156,-130.878,119.211,400.000,0.000,230.000,MOVING,0.000000,0
1782262477.644900,ursim,0,-62.732386,-67.686078,-86.336882,-31.666001,62.512919,-1.214908,0.000000,0.000000,0.000000,0.000000,0.000000,0.000000,6.250937,6.744545,8.602995,3.155343,-6.229068,0.121059,-183.316753,-197.792444,-252.293876,-92.534477,182.675425,-3.550209,-21.215,-456.373,1106.875,4.005,-130.653,119.603,400.000,0.000,230.000,MOVING,0.000000,0
1782262477.670246,ursim,0,-62.572523,-67.513590,-86.116866,-31.585305,62.353615,-1.211812,0.000000,0.000000,0.000000,0.000000,0.000000,0.000000,6.307415,6.805483,8.680725,3.183852,-6.285349,0.122153,82.953040,89.503464,114.166019,41.872966,-82.662831,1.606512,-22.263,-452.581,1110.644,3.777,-130.315,120.191,400.000,0.000,230.000,MOVING,0.000000,0
1782262477.686428,ursim,0,-62.465947,-67.398599,-85.970189,-31.531508,62.247412,-1.209748,0.000000,0.000000,0.000000,0.000000,0.000000,0.000000,6.585988,7.106053,9.064116,3.324469,-6.562947,0.127548,-203.495012,-219.564088,-280.064666,-102.720041,202.783091,-3.940992,-22.981,-450.044,1113.141,3.623,-130.090,120.581,400.000,0.000,230.000,MOVING,0.000000,0
1782262477.711888,ursim,0,-62.306084,-67.226112,-85.750173,-31.450813,62.088108,-1.206652,0.000000,0.000000,0.000000,0.000000,0.000000,0.000000,6.278946,6.774766,8.641543,3.169481,-6.256979,0.121601,82.205893,88.697319,113.137742,41.495822,-81.918299,1.592043,-24.087,-446.222,1116.865,3.390,-129.752,121.167,400.000,0.000,230.000,MOVING,0.000000,0
1782262477.728329,ursim,0,-62.199508,-67.111120,-85.603496,-31.397015,61.981905,-1.204588,0.000000,0.000000,0.000000,0.000000,0.000000,0.000000,6.482362,6.994245,8.921499,3.272161,-6.459684,0.125541,-197.141722,-212.709107,-271.320805,-99.513032,196.452027,-3.817951,-24.844,-443.664,1119.332,3.233,-129.527,121.556,400.000,0.000,230.000,MOVING,0.000000,0
1782262477.745360,ursim,0,-62.092932,-66.996129,-85.456819,-31.343218,61.875702,-1.202524,0.000000,0.000000,0.000000,0.000000,0.000000,0.000000,6.257587,6.751720,8.612147,3.158700,-6.235695,0.121188,0.000000,0.000000,-0.000000,-0.000000,-0.000000,0.000000,-25.617,-441.099,1121.788,3.075,-129.302,121.945,400.000,0.000,230.000,MOVING,0.000000,0
1782262477.770621,ursim,0,-61.933069,-66.823642,-85.236803,-31.262522,61.716398,-1.199428,0.000000,0.000000,0.000000,0.000000,0.000000,0.000000,6.328489,6.828221,8.709728,3.194490,-6.306349,0.122561,83.508280,90.102550,114.930182,42.153240,-83.216129,1.617265,-26.806,-437.238,1125.447,2.835,-128.963,122.527,400.000,0.000,230.000,MOVING,0.000000,0
1782262477.787314,ursim,0,-61.826493,-66.708650,-85.090126,-31.208725,61.610195,-1.197364,0.000000,0.000000,0.000000,0.000000,0.000000,0.000000,6.384591,6.888753,8.786939,3.222808,-6.362254,0.123647,-191.239711,-206.341041,-263.198028,-96.533820,190.570665,-3.703649,-27.619,-434.654,1127.871,2.673,-128.738,122.914,400.000,0.000,230.000,MOVING,0.000000,0
1782262477.812461,ursim,0,-61.666630,-66.536163,-84.870110,-31.128029,61.450891,-1.194268,0.000000,0.000000,0.000000,0.000000,0.000000,0.000000,6.357049,6.859036,8.749034,3.208906,-6.334809,0.123114,84.263706,90.917628,115.969853,42.534563,-83.968912,1.631895,-28.867,-430.766,1131.484,2.428,-128.399,123.495,400.000,0.000,230.000,MOVING,0.000000,0
1782262477.829117,ursim,0,-61.560054,-66.421172,-84.723433,-31.074232,61.344688,-1.192204,0.000000,0.000000,0.000000,0.000000,0.000000,0.000000,6.398848,6.904136,8.806561,3.230005,-6.376462,0.123923,-192.094780,-207.263631,-264.374836,-96.965441,191.422742,-3.720209,-29.719,-428.164,1133.877,2.263,-128.174,123.881,400.000,0.000,230.000,MOVING,0.000000,0
1782262477.854191,ursim,0,-61.400191,-66.248684,-84.503417,-30.993537,61.185384,-1.189108,0.000000,0.000000,0.000000,0.000000,0.000000,0.000000,6.375727,6.879189,8.774740,3.218334,-6.353422,0.123476,84.759598,91.452678,116.652336,42.784879,-84.463069,1.641499,-31.027,-424.249,1137.442,2.013,-127.835,124.459,400.000,0.000,230.000,MOVING,0.000000,0
1782262477.870956,ursim,0,-61.293615,-66.133693,-84.356740,-30.939739,61.079181,-1.187044,0.000000,0.000000,0.000000,0.000000,0.000000,0.000000,6.356898,6.858874,8.748827,3.208830,-6.334659,0.123111,-189.584351,-204.554965,-260.919801,-95.698229,188.921096,-3.671590,-31.918,-421.631,1139.804,1.845,-127.609,124.843,400.000,0.000,230.000,MOVING,0.000000,0
1782262477.887562,ursim,0,-61.187039,-66.018701,-84.210063,-30.885942,60.972978,-1.184980,0.000000,0.000000,0.000000,0.000000,0.000000,0.000000,6.417865,6.924655,8.832734,3.239605,-6.395413,0.124292,0.000000,-0.000000,0.000000,0.000000,-0.000000,-0.000000,-32.826,-419.006,1142.152,1.676,-127.383,125.227,400.000,0.000,230.000,MOVING,0.000000,0
1782262477.912941,ursim,0,-61.027176,-65.846214,-83.990047,-30.805246,60.813674,-1.181884,0.000000,0.000000,0.000000,0.000000,0.000000,0.000000,6.299120,6.796533,8.669308,3.179664,-6.277082,0.121992,82.734980,89.268185,113.865909,41.762894,-82.445534,1.602289,-34.217,-415.056,1145.650,1.419,-127.044,125.802,400.000,0.000,230.000,MOVING,0.000000,0
1782262477.929250,ursim,0,-60.920600,-65.731223,-83.843370,-30.751449,60.707471,-1.179820,0.000000,0.000000,0.000000,0.000000,0.000000,0.000000,6.534576,7.050582,8.993360,3.298518,-6.511715,0.126552,-200.330359,-216.149537,-275.709240,-101.122590,199.629509,-3.879703,-35.164,-412.415,1147.966,1.246,-126.818,126.185,400.000,0.000,230.000,MOVING,0.000000,0
1782262477.954717,ursim,0,-60.760737,-65.558736,-83.623354,-30.670753,60.548167,-1.176724,0.000000,0.000000,0.000000,0.000000,0.000000,0.000000,6.277359,6.773053,8.639359,3.168680,-6.255398,0.121571,82.164340,88.652484,113.080552,41.474846,-81.876890,1.591238,-36.615,-408.442,1151.415,0.984,-126.479,126.757,400.000,0.000,230.000,MOVING,0.000000,0
1782262477.971381,ursim,0,-60.654161,-65.443744,-83.476677,-30.616956,60.441964,-1.174660,0.000000,0.000000,0.000000,0.000000,0.000000,0.000000,6.395552,6.900580,8.802025,3.228342,-6.373178,0.123860,-191.896948,-207.050177,-264.102565,-96.865580,191.225602,-3.716377,-37.603,-405.785,1153.698,0.808,-126.252,127.138,400.000,0.000,230.000,MOVING,0.000000,0
1782262477.996370,ursim,0,-60.494297,-65.271257,-83.256661,-30.536261,60.282660,-1.171564,0.000000,0.000000,0.000000,0.000000,0.000000,0.000000,6.397322,6.902489,8.804461,3.229235,-6.374941,0.123894,85.334735,92.073231,117.443881,43.075196,-85.036194,1.652637,-39.114,-401.789,1157.098,0.541,-125.913,127.709,400.000,0.000,230.000,MOVING,0.000000,0
1782262478.013249,ursim,0,-60.387722,-65.156265,-83.109984,-30.482463,60.176457,-1.169500,0.000000,0.000000,0.000000,0.000000,0.000000,0.000000,6.313978,6.812565,8.689757,3.187165,-6.291889,0.122280,-187.032961,-201.802103,-257.408392,-94.410341,186.378632,-3.622179,-40.141,-399.118,1159.348,0.362,-125.687,128.088,400.000,0.000,230.000,MOVING,0.000000,0
1782262478.030031,ursim,0,-60.281146,-65.041274,-82.963307,-30.428666,60.070254,-1.167436,0.000000,0.000000,0.000000,0.000000,0.000000,0.000000,6.350757,6.852247,8.740375,3.205730,-6.328539,0.122992,0.000000,-0.000000,-0.000000,0.000000,0.000000,0.000000,-41.185,-396.442,1161.585,0.181,-125.460,128.467,400.000,0.000,230.000,MOVING,0.000000,0
1782262478.055214,ursim,0,-60.121283,-64.868787,-82.743291,-30.347970,59.910950,-1.164340,0.000000,0.000000,0.000000,0.000000,0.000000,0.000000,6.348021,6.849296,8.736610,3.204349,-6.325813,0.122939,84.024549,90.659586,115.640709,42.413841,-83.730592,1.627264,-42.780,-392.416,1164.914,-0.093,-125.121,129.035,400.000,0.000,230.000,MOVING,0.000000,0
1782262478.072048,ursim,0,-60.014707,-64.753795,-82.596614,-30.294173,59.804747,-1.162276,0.000000,0.000000,0.000000,0.000000,0.000000,0.000000,6.331059,6.830994,8.713264,3.195786,-6.308910,0.122611,-188.046235,-202.895391,-258.802933,-94.921820,187.388361,-3.641803,-43.863,-389.726,1167.117,-0.277,-124.894,129.412,400.000,0.000,230.000,MOVING,0.000000,0
1782262478.096740,ursim,0,-59.854843,-64.581308,-82.376598,-30.213478,59.645443,-1.159180,0.000000,0.000000,0.000000,0.000000,0.000000,0.000000,6.474288,6.985533,8.910387,3.268086,-6.451638,0.125384,87.400407,94.302019,120.286809,44.117904,-87.094639,1.692642,-45.519,-385.680,1170.395,0.555,124.523,-129.945,400.000,0.000,230.000,MOVING,0.000000,0
1782262478.113665,ursim,0,-59.748268,-64.466317,-82.229921,-30.159680,59.539240,-1.157116,0.000000,0.000000,0.000000,0.000000,0.000000,0.000000,6.296990,6.794235,8.666377,3.178589,-6.274960,0.121951,-186.027855,-200.717628,-256.025091,-93.902984,185.377042,-3.602713,-46.643,-382.977,1172.564,0.742,124.136,-130.153,400.000,0.000,230.000,MOVING,0.000000,0
1782262478.137767,ursim,0,-59.588404,-64.293830,-82.009905,-30.078985,59.379936,-1.154020,0.000000,0.000000,0.000000,0.000000,0.000000,0.000000,6.632732,7.156488,9.128449,3.348065,-6.609527,0.128453,91.730610,98.974159,126.246351,46.303700,-91.409693,1.776503,-48.359,-378.913,1175.791,1.023,123.556,-130.461,400.000,0.000,230.000,MOVING,0.000000,0
1782262478.155526,ursim,0,-59.481829,-64.178838,-81.863228,-30.025187,59.273733,-1.151956,0.000000,0.000000,0.000000,0.000000,0.000000,0.000000,6.001191,6.475078,8.259277,3.029276,-5.980196,0.116222,-168.961164,-182.303259,-232.536668,-85.288074,168.370058,-3.272191,-49.523,-376.197,1177.925,1.212,123.169,-130.663,400.000,0.000,230.000,MOVING,0.000000,0
1782262478.172556,ursim,0,-59.375253,-64.063847,-81.716550,-29.971390,59.167530,-1.149892,0.000000,0.000000,0.000000,0.000000,0.000000,0.000000,6.258025,6.752193,8.612750,3.158921,-6.236132,0.121196,0.000000,-0.000000,0.000000,0.000000,-0.000000,0.000000,-50.703,-373.477,1180.045,1.401,122.782,-130.863,400.000,0.000,230.000,MOVING,0.000000,0
1782262478.197595,ursim,0,-59.215389,-63.891359,-81.496535,-29.890694,59.008226,-1.146796,0.000000,0.000000,0.000000,0.000000,0.000000,0.000000,6.384591,6.888753,8.786939,3.222808,-6.362254,0.123647,84.995427,91.707129,116.976901,42.903920,-84.698073,1.646066,-52.504,-369.389,1183.198,1.687,122.201,-131.158,400.000,0.000,230.000,MOVING,0.000000,0
1782262478.214363,ursim,0,-59.108814,-63.776368,-81.349857,-29.836897,58.902023,-1.144732,0.000000,0.000000,0.000000,0.000000,0.000000,0.000000,6.355904,6.857801,8.747458,3.208328,-6.333668,0.123092,-189.525052,-204.490983,-260.838189,-95.668296,188.862004,-3.670442,-53.724,-366.657,1185.283,1.878,121.813,-131.352,400.000,0.000,230.000,MOVING,0.000000,0
1782262478.239381,ursim,0,-58.948950,-63.603881,-81.129842,-29.756202,58.742719,-1.141636,0.000000,0.000000,0.000000,0.000000,0.000000,0.000000,6.389945,6.894530,8.794308,3.225511,-6.367590,0.123751,85.138046,91.861011,117.173184,42.975911,-84.840194,1.648828,-55.585,-362.553,1188.384,2.167,121.232,-131.638,400.000,0.000,230.000,MOVING,0.000000,0
1782262478.256154,ursim,0,-58.842375,-63.488889,-80.983164,-29.702404,58.636516,-1.139572,0.000000,0.000000,0.000000,0.000000,0.000000,0.000000,6.354187,6.855949,8.745096,3.207461,-6.331958,0.123059,-189.422691,-204.380540,-260.697313,-95.616627,188.760002,-3.668460,-56.846,-359.811,1190.433,2.360,120.844,-131.826,400.000,0.000,230.000,MOVING,0.000000,0
1782262478.281365,ursim,0,-58.682511,-63.316402,-80.763149,-29.621709,58.477212,-1.136476,0.000000,0.000000,0.000000,0.000000,0.000000,0.000000,6.340938,6.841653,8.726860,3.200773,-6.318754,0.122802,83.837128,90.457364,115.382765,42.319235,-83.543826,1.623634,-58.768,-355.691,1193.480,2.652,120.261,-132.103,400.000,0.000,230.000,MOVING,0.000000,0
1782262478.298103,ursim,0,-58.575935,-63.201411,-80.616471,-29.567911,58.371009,-1.134412,0.000000,0.000000,0.000000,0.000000,0.000000,0.000000,6.367402,6.870207,8.763283,3.214132,-6.345126,0.123314,-190.211389,-205.231517,-261.782776,-96.014745,189.545940,-3.683734,-60.069,-352.940,1195.494,2.847,119.873,-132.285,400.000,0.000,230.000,MOVING,0.000000,0
1782262478.314596,ursim,0,-58.469360,-63.086419,-80.469794,-29.514114,58.264807,-1.132348,0.000000,0.000000,0.000000,0.000000,0.000000,0.000000,6.461934,6.972203,8.893384,3.261850,-6.439327,0.125145,-0.000000,-0.000000,-0.000000,0.000000,0.000000,-0.000000,-61.387,-350.185,1197.493,3.044,119.484,-132.464,400.000,0.000,230.000,MOVING,0.000000,0
1782262478.339680,ursim,0,-58.309496,-62.913932,-80.249778,-29.433418,58.105502,-1.129252,0.000000,0.000000,0.000000,0.000000,0.000000,0.000000,6.372940,6.876182,8.770904,3.216927,-6.350644,0.123422,84.685499,91.372728,116.550356,42.747475,-84.389229,1.640064,-63.393,-346.047,1200.464,3.339,118.901,-132.728,400.000,0.000,230.000,MOVING,0.000000,0
1782262478.356576,ursim,0,-58.202921,-62.798941,-80.103101,-29.379621,57.999299,-1.127188,0.000000,0.000000,0.000000,0.000000,0.000000,0.000000,6.307920,6.806027,8.681419,3.184106,-6.285852,0.122162,-186.674190,-201.415002,-256.914626,-94.229241,186.021116,-3.615231,-64.751,-343.283,1202.426,3.537,118.513,-132.902,400.000,0.000,230.000,MOVING,0.000000,0
1782262478.381322,ursim,0,-58.043057,-62.626453,-79.883085,-29.298926,57.839995,-1.124092,0.000000,0.000000,0.000000,0.000000,0.000000,0.000000,6.460066,6.970188,8.890814,3.260907,-6.437466,0.125109,87.016851,93.888176,119.758932,43.924293,-86.712425,1.685214,-66.818,-339.132,1205.342,3.836,117.929,-133.157,400.000,0.000,230.000,MOVING,0.000000,0
1782262478.398002,ursim,0,-57.936481,-62.511462,-79.736408,-29.245128,57.733792,-1.122028,0.000000,0.000000,0.000000,0.000000,0.000000,0.000000,6.389427,6.893971,8.793596,3.225250,-6.367074,0.123741,-191.529574,-206.653793,-263.596958,-96.680137,190.859513,-3.709263,-68.216,-336.361,1207.268,4.036,117.540,-133.324,400.000,0.000,230.000,MOVING,0.000000,0
1782262478.423502,ursim,0,-57.776618,-62.338975,-79.516392,-29.164433,57.574488,-1.118932,0.000000,0.000000,0.000000,0.000000,0.000000,0.000000,6.269259,6.764314,8.628212,3.164591,-6.247327,0.121414,81.952445,88.423857,112.788928,41.367886,-81.665737,1.587134,-70.344,-332.199,1210.129,4.337,116.957,-133.570,400.000,0.000,230.000,MOVING,0.000000,0
1782262478.439359,ursim,0,-57.670042,-62.223983,-79.369715,-29.110635,57.468285,-1.116868,0.000000,0.000000,0.000000,0.000000,0.000000,0.000000,6.721157,7.251897,9.250147,3.392700,-6.697644,0.130165,-211.933731,-228.669174,-291.678646,-106.979730,211.192287,-4.104420,-71.782,-329.420,1212.017,4.539,116.568,-133.732,400.000,0.000,230.000,MOVING,0.000000,0
1782262478.464546,ursim,0,-57.510179,-62.051496,-79.149699,-29.029940,57.308981,-1.113772,0.000000,0.000000,0.000000,0.000000,0.000000,0.000000,6.346940,6.848129,8.735121,3.203803,-6.324735,0.122918,83.995919,90.628695,115.601305,42.399389,-83.702062,1.626709,-73.970,-325.248,1214.822,4.843,115.984,-133.969,400.000,0.000,230.000,MOVING,0.000000,0
1782262478.482190,ursim,0,-57.403603,-61.936505,-79.003022,-28.976143,57.202778,-1.111708,0.000000,0.000000,0.000000,0.000000,0.000000,0.000000,6.040522,6.517515,8.313407,3.049130,-6.019390,0.116984,-171.183123,-184.700675,-235.594689,-86.409673,170.584244,-3.315223,-75.449,-322.463,1216.673,5.046,115.595,-134.124,400.000,0.000,230.000,MOVING,0.000000,0
1782262478.498768,ursim,0,-57.297027,-61.821513,-78.856345,-28.922345,57.096576,-1.109644,0.000000,0.000000,0.000000,0.000000,0.000000,0.000000,6.428664,6.936307,8.847596,3.245056,-6.406174,0.124501,-0.000000,-0.000000,-0.000000,-0.000000,0.000000,-0.000000,-76.944,-319.677,1218.508,5.250,115.206,-134.277,400.000,0.000,230.000,MOVING,0.000000,0
1782262478.523908,ursim,0,-57.137164,-61.649026,-78.636329,-28.841650,56.937271,-1.106548,0.000000,0.000000,0.000000,0.000000,0.000000,0.000000,6.358918,6.861053,8.751606,3.209849,-6.336671,0.123150,84.313259,90.971094,116.038052,42.559576,-84.018292,1.632855,-79.216,-315.492,1221.234,5.558,114.623,-134.501,400.000,0.000,230.000,MOVING,0.000000,0
1782262478.540584,ursim,0,-57.030588,-61.534035,-78.489652,-28.787852,56.831069,-1.104484,0.000000,0.000000,0.000000,0.000000,0.000000,0.000000,6.390980,6.895647,8.795733,3.226034,-6.368622,0.123771,-191.622688,-206.754260,-263.725109,-96.727139,190.952302,-3.711066,-80.751,-312.700,1223.031,5.764,114.234,-134.648,400.000,0.000,230.000,MOVING,0.000000,0
1782262478.565539,ursim,0,-56.870725,-61.361547,-78.269636,-28.707157,56.671764,-1.101388,0.000000,0.000000,0.000000,0.000000,0.000000,0.000000,6.406123,6.911986,8.816574,3.233677,-6.383712,0.124064,85.569700,92.326750,117.767257,43.193801,-85.270337,1.657188,-83.084,-308.508,1225.699,6.074,113.651,-134.864,400.000,0.000,230.000,MOVING,0.000000,0
1782262478.582536,ursim,0,-56.764149,-61.246556,-78.122959,-28.653359,56.565562,-1.099324,0.000000,0.000000,0.000000,0.000000,0.000000,0.000000,6.270051,6.765168,8.629301,3.164991,-6.248115,0.121429,-184.439561,-199.003914,-253.839165,-93.101246,183.794304,-3.571954,-84.659,-305.712,1227.459,6.281,113.262,-135.004,400.000,0.000,230.000,MOVING,0.000000,0
1782262478.607628,ursim,0,-56.604286,-61.074069,-77.902943,-28.572664,56.406257,-1.096228,0.000000,0.000000,0.000000,0.000000,0.000000,0.000000,6.371062,6.874156,8.768320,3.215980,-6.348773,0.123385,84.635618,91.318907,116.481705,42.722296,-84.339522,1.639098,-87.052,-301.514,1230.069,6.594,112.679,-135.211,400.000,0.000,230.000,MOVING,0.000000,0
1782262478.624414,ursim,0,-56.497710,-60.959077,-77.756266,-28.518867,56.300054,-1.094164,0.000000,0.000000,0.000000,0.000000,0.000000,0.000000,6.349133,6.850496,8.738140,3.204910,-6.326921,0.122961,-189.121478,-204.055541,-260.282761,-95.464581,188.459842,-3.662626,-88.667,-298.714,1231.789,6.803,112.290,-135.346,400.000,0.000,230.000,MOVING,0.000000,0
1782262478.648370,ursim,0,-56.337846,-60.786590,-77.536250,-28.438171,56.140750,-1.091068,0.000000,0.000000,0.000000,0.000000,0.000000,0.000000,6.673263,7.200220,9.184231,3.368524,-6.649917,0.129238,92.855128,100.187476,127.793995,46.871334,-92.530278,1.798281,-91.119,-294.511,1234.341,7.117,111.707,-135.543,400.000,0.000,230.000,MOVING,0.000000,0
1782262478.666087,ursim,0,-56.231271,-60.671599,-77.389573,-28.384374,56.034547,-1.089004,0.000000,0.000000,0.000000,0.000000,0.000000,0.000000,6.015324,6.490326,8.278727,3.036410,-5.994279,0.116496,-169.757886,-183.162895,-233.633175,-85.690243,169.163994,-3.287621,-92.774,-291.708,1236.023,7.328,111.319,-135.672,400.000,0.000,230.000,MOVING,0.000000,0
1782262478.682898,ursim,0,-56.124695,-60.556607,-77.242896,-28.330576,55.928345,-1.086940,0.000000,0.000000,0.000000,0.000000,0.000000,0.000000,6.339858,6.840488,8.725375,3.200228,-6.317679,0.122781,-0.000000,-0.000000,0.000000,0.000000,0.000000,0.000000,-94.445,-288.903,1237.689,7.539,110.931,-135.798,400.000,0.000,230.000,MOVING,0.000000,0
1782262478.707871,ursim,0,-55.964832,-60.384120,-77.022880,-28.249881,55.769040,-1.083844,0.000000,0.000000,0.000000,0.000000,0.000000,0.000000,6.401353,6.906838,8.810008,3.231269,-6.378958,0.123972,85.442307,92.189297,117.591930,43.129496,-85.143389,1.654721,-96.982,-284.696,1240.158,7.857,110.349,-135.983,400.000,0.000,230.000,MOVING,0.000000,0
1782262478.724610,ursim,0,-55.858256,-60.269128,-76.876203,-28.196083,55.662838,-1.081780,0.000000,0.000000,0.000000,0.000000,0.000000,0.000000,6.366949,6.869718,8.762659,3.213903,-6.344674,0.123306,-190.184297,-205.202286,-261.745491,-96.001070,189.518943,-3.683209,-98.693,-281.890,1241.785,8.070,109.961,-136.104,400.000,0.000,230.000,MOVING,0.000000,0
1782262478.749789,ursim,0,-55.698393,-60.096641,-76.656187,-28.115388,55.503533,-1.078684,0.000000,0.000000,0.000000,0.000000,0.000000,0.000000,6.349043,6.850398,8.738016,3.204865,-6.326831,0.122959,84.051603,90.688775,115.677941,42.427497,-83.757551,1.627788,-101.289,-277.679,1244.195,8.390,109.379,-136.280,400.000,0.000,230.000,MOVING,0.000000,0
1782262478.766537,ursim,0,-55.591817,-59.981650,-76.509510,-28.061591,55.397331,-1.076620,0.000000,0.000000,0.000000,0.000000,0.000000,0.000000,6.363414,6.865904,8.757794,3.212119,-6.341152,0.123237,-189.973181,-204.974500,-261.454937,-95.894503,189.308566,-3.679121,-103.039,-274.872,1245.781,8.605,108.992,-136.394,400.000,0.000,230.000,MOVING,0.000000,0
1782262478.791650,ursim,0,-55.431953,-59.809163,-76.289494,-27.980895,55.238026,-1.073524,0.000000,0.000000,0.000000,0.000000,0.000000,0.000000,6.365800,6.868478,8.761078,3.213323,-6.343530,0.123283,84.495863,91.168117,116.289364,42.651751,-84.200256,1.636391,-105.694,-270.661,1248.131,8.927,108.411,-136.561,400.000,0.000,230.000,MOVING,0.000000,0
1782262478.808502,ursim,0,-55.325378,-59.694171,-76.142817,-27.927098,55.131824,-1.071460,0.000000,0.000000,0.000000,0.000000,0.000000,0.000000,6.324251,6.823649,8.703896,3.192350,-6.302126,0.122479,-187.642063,-202.459304,-258.246683,-94.717803,186.985603,-3.633975,-107.484,-267.854,1249.678,9.143,108.024,-136.670,400.000,0.000,230.000,MOVING,0.000000,0
